(Om-rest)
(Machine)
(  vendor: Makera)
(  model: Carvera 3-axis)
(  description: Makera Carvera 3-axis)
(T4  D=3.175 CR=0 - ZMIN=-2.5 - flat end mill)
G90 G94
G17
G21
(When using Fusion for Personal Use, the feedrate of rapid)
(moves is reduced to match the feedrate of cutting moves,)
(which can increase machining time. Unrestricted rapid moves)
(are available with a Fusion Subscription.)

(2D Pocket1)
T4 M6
S10000 M3
G54
G0 X25.33 Y29.924
Z15
G1 Z5 F1000
Z2.817 F300
X25.345 Y29.907 Z2.698 F500
X25.39 Y29.859 Z2.597
X25.462 Y29.791 Z2.527
X25.554 Y29.716 Z2.5
G3 X27.375 Y32.12 Z2.335 I0.911 J1.202
X25.554 Y29.716 Z2.169 I-0.911 J-1.202
X27.375 Y32.12 Z2.004 I0.911 J1.202
X25.554 Y29.716 Z1.838 I-0.911 J-1.202
X27.375 Y32.12 Z1.673 I0.911 J1.202
X25.554 Y29.716 Z1.507 I-0.911 J-1.202
X27.375 Y32.12 Z1.342 I0.911 J1.202
X25.554 Y29.716 Z1.176 I-0.911 J-1.202
X27.375 Y32.12 Z1.011 I0.911 J1.202
X25.554 Y29.716 Z0.845 I-0.911 J-1.202
X27.375 Y32.12 Z0.68 I0.911 J1.202
X25.554 Y29.716 Z0.515 I-0.911 J-1.202
X27.375 Y32.12 Z0.349 I0.911 J1.202
X25.554 Y29.716 Z0.184 I-0.911 J-1.202
X27.375 Y32.12 Z0.018 I0.911 J1.202
X25.554 Y29.716 Z-0.147 I-0.911 J-1.202
X27.375 Y32.12 Z-0.313 I0.911 J1.202
X25.554 Y29.716 Z-0.478 I-0.911 J-1.202
X27.375 Y32.12 Z-0.644 I0.911 J1.202
X25.554 Y29.716 Z-0.809 I-0.911 J-1.202
X27.375 Y32.12 Z-0.974 I0.911 J1.202
X25.554 Y29.716 Z-1.14 I-0.911 J-1.202
X27.375 Y32.12 Z-1.305 I0.911 J1.202
X25.554 Y29.716 Z-1.471 I-0.911 J-1.202
X27.375 Y32.12 Z-1.636 I0.911 J1.202
X25.554 Y29.716 Z-1.802 I-0.911 J-1.202
X27.375 Y32.12 Z-1.967 I0.911 J1.202
X25.554 Y29.716 Z-2.133 I-0.911 J-1.202
X27.375 Y32.12 Z-2.298 I0.911 J1.202
X25.554 Y29.716 Z-2.464 I-0.911 J-1.202
X26.53 Y29.411 Z-2.5 I0.911 J1.202
X26.428 Y31.766 I-0.051 J1.177
G1 X26.409 Y31.765 F1000
G2 X26.129 Y31.762 I-0.261 J9.447
G3 X25.85 Y31.758 I-0.019 J-9.451
X25.683 Y31.471 I0.005 J-0.195
G1 X26.078 Y30.734
G3 X26.454 Y30.511 I0.372 J0.199
G1 X26.904 Y30.515
G3 X27.113 Y30.804 I-0.002 J0.221
G2 X26.984 Y31.528 I2.603 J0.838
G3 X26.671 Y31.793 I-0.279 J-0.012
G1 X26.54 Y31.776
X26.428 Y31.766
X26.368 Y31.756 Z-2.488
X26.311 Y31.735 Z-2.476
X26.266 Y31.709 Z-2.441
X26.227 Y31.676 Z-2.407
X26.184 Y31.622 Z-2.304
X26.172 Y31.601 Z-2.183
Z5
X29.559 Y15.896
Z2.817 F300
X29.54 Y15.908 Z2.698 F500
X29.484 Y15.943 Z2.597
X29.397 Y15.991 Z2.527
X29.29 Y16.04 Z2.5
G3 X28.139 Y13.252 Z2.335 I-0.576 J-1.394
X29.29 Y16.04 Z2.169 I0.576 J1.394
X28.139 Y13.252 Z2.004 I-0.576 J-1.394
X29.29 Y16.04 Z1.838 I0.576 J1.394
X28.139 Y13.252 Z1.673 I-0.576 J-1.394
X29.29 Y16.04 Z1.507 I0.576 J1.394
X28.139 Y13.252 Z1.342 I-0.576 J-1.394
X29.29 Y16.04 Z1.176 I0.576 J1.394
X28.139 Y13.252 Z1.011 I-0.576 J-1.394
X29.29 Y16.04 Z0.845 I0.576 J1.394
X28.139 Y13.252 Z0.68 I-0.576 J-1.394
X29.29 Y16.04 Z0.515 I0.576 J1.394
X28.139 Y13.252 Z0.349 I-0.576 J-1.394
X29.29 Y16.04 Z0.184 I0.576 J1.394
X28.139 Y13.252 Z0.018 I-0.576 J-1.394
X29.29 Y16.04 Z-0.147 I0.576 J1.394
X28.139 Y13.252 Z-0.313 I-0.576 J-1.394
X29.29 Y16.04 Z-0.478 I0.576 J1.394
X28.139 Y13.252 Z-0.644 I-0.576 J-1.394
X29.29 Y16.04 Z-0.809 I0.576 J1.394
X28.139 Y13.252 Z-0.974 I-0.576 J-1.394
X29.29 Y16.04 Z-1.14 I0.576 J1.394
X28.139 Y13.252 Z-1.305 I-0.576 J-1.394
X29.29 Y16.04 Z-1.471 I0.576 J1.394
X28.139 Y13.252 Z-1.636 I-0.576 J-1.394
X29.29 Y16.04 Z-1.802 I0.576 J1.394
X28.139 Y13.252 Z-1.967 I-0.576 J-1.394
X29.29 Y16.04 Z-2.133 I0.576 J1.394
X28.139 Y13.252 Z-2.298 I-0.576 J-1.394
X29.29 Y16.04 Z-2.464 I0.576 J1.394
X28.268 Y16.087 Z-2.5 I-0.576 J-1.394
X28.967 Y13.831 I0.35 J-1.128
X29.869 Y14.23 I-1.267 J4.087 F1000
X31.074 Y15.137 I-3.372 J5.734
X31.393 Y15.447 I-12.104 J12.764
X31.69 Y15.777 I-2.957 J2.965
G2 X32.117 Y16.237 I3.643 J-2.949
G3 X32.528 Y16.712 I-2.145 J2.274
G1 X32.544 Y16.745
X32.546 Y16.782
X32.536 Y16.818
X32.513 Y16.847
X32.482 Y16.867
X32.445 Y16.874
X32.408 Y16.868
X32.376 Y16.849
G3 X31.991 Y16.496 I6.052 J-6.994
G2 X31.572 Y16.181 I-1.459 J1.505
X30.038 Y15.391 I-9.71 J16.977
X28.402 Y14.839 I-3.41 J7.411
X25.207 Y14.479 I-3.276 J14.706
X22.012 Y14.829 I-0.077 J14.057
G1 X21.974 Y14.831
X21.938 Y14.82
X21.908 Y14.796
X21.888 Y14.764
X21.88 Y14.727
X21.885 Y14.69
X21.903 Y14.656
X21.931 Y14.631
X22.016 Y14.58
X22.102 Y14.533
G3 X22.469 Y14.368 I1.555 J2.967
X22.847 Y14.228 I9.681 J25.531
G2 X23.708 Y13.911 I-35.068 J-96.765
G3 X24.598 Y13.688 I1.445 J3.88
X26.527 Y13.547 I2.12 J15.657
X28.454 Y13.706 I0.124 J10.236
X28.967 Y13.831 I-0.754 J4.212
G2 X30.006 Y13.581 I0.309 J-0.998
G3 X31.071 Y13.489 I0.588 J0.603
G1 X31.287 Y13.637
X31.963 Y14.2
X33.284 Y15.625
X33.78 Y16.33
X34.178 Y17.044
X34.526 Y17.925
X34.788 Y18.942
X34.957 Y20.06
X35.024 Y21.229
X34.988 Y22.399
X34.848 Y23.521
X34.613 Y24.543
X34.272 Y25.476
X33.45 Y27.301
G2 X33.556 Y28.801 I1.448 J0.652
G1 X33.457 Y28.792
G2 X33.055 Y28.806 I-0.146 J1.581
G1 X32.131 Y28.956
G2 X31.84 Y29.032 I0.255 J1.567
G1 X30.83 Y29.403
X30.724 Y29.446
X29.063 Y30.195
G2 X28.866 Y32.984 I0.653 J1.447
G1 X29.995 Y33.698
X30.369 Y33.998
X30.644 Y34.298
X30.474 Y34.17
X30.372 Y34.1
X30.264 Y34.037
X29.595 Y33.683
X29.495 Y33.635
X29.393 Y33.593
X28.636 Y33.319
X28.544 Y33.289
X28.45 Y33.264
X27.609 Y33.071
X27.527 Y33.054
X27.444 Y33.042
X26.523 Y32.931
X26.377 Y32.92
X25.381 Y32.892
X25.252 Y32.894
X24.184 Y32.951
X24.125 Y32.955
X23.862 Y32.979
X24.447 Y31.35
X25.215 Y29.916
X25.687 Y29.307
X26.19 Y29.356
X26.326 Y29.363
X27.538 Y29.375
X27.629 Y29.373
X27.719 Y29.366
X28.778 Y29.256
X28.895 Y29.239
X29.01 Y29.214
X29.923 Y28.978
G2 X30.201 Y28.877 I-0.397 J-1.537
G1 X30.975 Y28.513
G2 X31.268 Y28.334 I-0.676 J-1.436
G1 X31.909 Y27.84
G2 X32.165 Y27.592 I-0.969 J-1.257
G1 X32.683 Y26.965
G2 X32.863 Y26.693 I-1.225 J-1.01
G1 X33.264 Y25.929
G2 X33.372 Y25.669 I-1.406 J-0.738
G1 X33.712 Y24.591
G2 X33.774 Y24.309 I-1.514 J-0.477
G1 X33.906 Y23.245
G2 X33.914 Y22.946 I-1.575 J-0.195
G1 X33.846 Y21.916
G2 X33.796 Y21.611 I-1.584 J0.104
G1 X33.537 Y20.637
G2 X33.426 Y20.343 I-1.534 J0.409
G1 X32.982 Y19.445
G2 X32.814 Y19.176 I-1.423 J0.703
G1 X32.194 Y18.376
G2 X31.978 Y18.148 I-1.255 J0.972
G1 X31.19 Y17.466
G2 X30.939 Y17.288 I-1.039 J1.201
G1 X29.991 Y16.746
G2 X29.707 Y16.619 I-0.788 J1.378
G1 X28.281 Y16.141
G2 X28.018 Y16.077 I-0.504 J1.505
G1 X26.422 Y15.832
X26.314 Y15.819
X26.204 Y15.813
X24.512 Y15.788
X24.416 Y15.79
X24.32 Y15.797
X22.605 Y15.98
X22.513 Y15.993
X22.421 Y16.011
X20.755 Y16.39
X20.658 Y16.415
X20.563 Y16.447
X19.019 Y17.01
X18.909 Y17.054
X18.803 Y17.107
X17.454 Y17.842
G2 X17.202 Y18.013 I0.759 J1.394
G1 X16.121 Y18.908
G2 X15.921 Y19.105 I1.012 J1.223
G1 X15.837 Y19.204
X16.309 Y18.344
X17.406 Y16.815
X18.646 Y15.481
X20.02 Y14.349
X21.521 Y13.424
X23.152 Y12.709
X23.726 Y12.542
X24.425 Y12.41
X26.149 Y12.268
X27.92 Y12.333
X28.681 Y12.437
X29.328 Y12.581
X29.929 Y12.804
X30.587 Y13.157
X31.071 Y13.489
X31.116 Y13.529 Z-2.488
X31.153 Y13.577 Z-2.476
X31.176 Y13.623 Z-2.441
X31.191 Y13.672 Z-2.407
X31.198 Y13.741 Z-2.304
X31.197 Y13.765 Z-2.183
Z5
X47.176 Y16.464
Z2.817 F300
X47.194 Y16.451 Z2.698 F500
X47.249 Y16.414 Z2.597
X47.335 Y16.363 Z2.527
X47.44 Y16.311 Z2.5
G3 X48.683 Y19.059 Z2.335 I0.622 J1.374
X47.44 Y16.311 Z2.169 I-0.622 J-1.374
X48.683 Y19.059 Z2.004 I0.622 J1.374
X47.44 Y16.311 Z1.838 I-0.622 J-1.374
X48.683 Y19.059 Z1.673 I0.622 J1.374
X47.44 Y16.311 Z1.507 I-0.622 J-1.374
X48.683 Y19.059 Z1.342 I0.622 J1.374
X47.44 Y16.311 Z1.176 I-0.622 J-1.374
X48.683 Y19.059 Z1.011 I0.622 J1.374
X47.44 Y16.311 Z0.845 I-0.622 J-1.374
X48.683 Y19.059 Z0.68 I0.622 J1.374
X47.44 Y16.311 Z0.515 I-0.622 J-1.374
X48.683 Y19.059 Z0.349 I0.622 J1.374
X47.44 Y16.311 Z0.184 I-0.622 J-1.374
X48.683 Y19.059 Z0.018 I0.622 J1.374
X47.44 Y16.311 Z-0.147 I-0.622 J-1.374
X48.683 Y19.059 Z-0.313 I0.622 J1.374
X47.44 Y16.311 Z-0.478 I-0.622 J-1.374
X48.683 Y19.059 Z-0.644 I0.622 J1.374
X47.44 Y16.311 Z-0.809 I-0.622 J-1.374
X48.683 Y19.059 Z-0.974 I0.622 J1.374
X47.44 Y16.311 Z-1.14 I-0.622 J-1.374
X48.683 Y19.059 Z-1.305 I0.622 J1.374
X47.44 Y16.311 Z-1.471 I-0.622 J-1.374
X48.683 Y19.059 Z-1.636 I0.622 J1.374
X47.44 Y16.311 Z-1.802 I-0.622 J-1.374
X48.683 Y19.059 Z-1.967 I0.622 J1.374
X47.44 Y16.311 Z-2.133 I-0.622 J-1.374
X48.683 Y19.059 Z-2.298 I0.622 J1.374
X47.44 Y16.311 Z-2.464 I-0.622 J-1.374
X48.46 Y16.23 Z-2.5 I0.622 J1.374
X47.847 Y18.468 I-0.307 J1.119
G2 X47.269 Y18.351 I-1.166 J4.256 F1000
X46.246 Y18.217 I-21.323 J158.57
X45.215 Y18.176 I-0.751 J5.87
G1 X45.179 Y18.171
X45.146 Y18.153
X45.123 Y18.125
X45.11 Y18.091
X45.111 Y18.054
X45.124 Y18.02
X45.149 Y17.993
X45.182 Y17.977
G3 X46.579 Y17.775 I1.425 J4.93
X47.982 Y17.93 I0.033 J6.123
X48.983 Y18.279 I-1.079 J4.701
X49.876 Y18.852 I-1.84 J3.85
X50.153 Y19.085 I-25.969 J31.142
X50.411 Y19.341 I-1.534 J1.806
G1 X50.43 Y19.373
X50.438 Y19.411
X50.431 Y19.448
X50.413 Y19.482
X50.384 Y19.507
X50.348 Y19.52
X50.31
X50.274 Y19.508
G3 X49.822 Y19.238 I5.554 J-9.826
G2 X49.348 Y19.011 I-1.228 J1.953
G3 X48.325 Y18.629 I7.253 J-21.001
G2 X47.847 Y18.468 I-1.644 J4.095
X46.175 Y19.093 I-0.403 J1.471
G3 X44.641 Y20.005 I-1.721 J-1.148
G1 X43.825 Y20.079
G2 X43.434 Y20.165 I0.143 J1.581
G1 X42.113 Y20.637
G2 X41.796 Y20.792 I0.534 J1.495
G1 X41.28 Y21.12
X41.187 Y21.183
X41.1 Y21.253
X40.844 Y21.47
X41.124 Y20.235
X41.439 Y19.393
X41.811 Y18.679
X42.29 Y17.989
X42.792 Y17.416
X43.309 Y16.964
X43.855 Y16.612
X44.453 Y16.342
X45.133 Y16.145
X45.916 Y16.023
X46.809 Y15.982
X47.627 Y16.026
X48.39 Y16.155
X49.107 Y16.365
X49.784 Y16.653
X50.423 Y17.021
X51.028 Y17.471
X51.598 Y18.004
X52.134 Y18.623
X52.633 Y19.33
X53.091 Y20.126
X53.503 Y21.01
X53.867 Y21.982
X54.178 Y23.04
X54.432 Y24.181
X54.625 Y25.403
X54.753 Y26.685
X54.782 Y27.925
X54.751 Y27.737
G2 X54.687 Y27.484 I-1.566 J0.259
G1 X54.246 Y26.189
G2 X54.116 Y25.903 I-1.503 J0.512
G1 X53.272 Y24.451
G2 X53.106 Y24.218 I-1.372 J0.798
G1 X52.04 Y22.971
G2 X51.842 Y22.777 I-1.206 J1.032
G1 X50.605 Y21.759
G2 X50.377 Y21.603 I-1.009 J1.226
G1 X49.021 Y20.836
G2 X48.758 Y20.718 I-0.781 J1.382
G1 X47.334 Y20.226
G2 X47.027 Y20.153 I-0.518 J1.501
G1 X45.586 Y19.959
G2 X45.231 Y19.951 I-0.212 J1.573
G1 X44.641 Y20.005
X44.581 Y20.003 Z-2.488
X44.522 Y19.989 Z-2.476
X44.474 Y19.968 Z-2.441
X44.431 Y19.94 Z-2.407
X44.382 Y19.892 Z-2.304
X44.368 Y19.873 Z-2.183
Z5
X41.543 Y36.44
Z2.817 F300
X41.52 Y36.438 Z2.698 F500
X41.455 Y36.427 Z2.597
X41.358 Y36.407 Z2.527
X41.244 Y36.374 Z2.5
G3 X42.193 Y33.511 Z2.335 I0.474 J-1.432
X41.244 Y36.374 Z2.169 I-0.474 J1.432
X42.193 Y33.511 Z2.004 I0.474 J-1.432
X41.244 Y36.374 Z1.838 I-0.474 J1.432
X42.193 Y33.511 Z1.673 I0.474 J-1.432
X41.244 Y36.374 Z1.507 I-0.474 J1.432
X42.193 Y33.511 Z1.342 I0.474 J-1.432
X41.244 Y36.374 Z1.176 I-0.474 J1.432
X42.193 Y33.511 Z1.011 I0.474 J-1.432
X41.244 Y36.374 Z0.845 I-0.474 J1.432
X42.193 Y33.511 Z0.68 I0.474 J-1.432
X41.244 Y36.374 Z0.515 I-0.474 J1.432
X42.193 Y33.511 Z0.349 I0.474 J-1.432
X41.244 Y36.374 Z0.184 I-0.474 J1.432
X42.193 Y33.511 Z0.018 I0.474 J-1.432
X41.244 Y36.374 Z-0.147 I-0.474 J1.432
X42.193 Y33.511 Z-0.313 I0.474 J-1.432
X41.244 Y36.374 Z-0.478 I-0.474 J1.432
X42.193 Y33.511 Z-0.644 I0.474 J-1.432
X41.244 Y36.374 Z-0.809 I-0.474 J1.432
X42.193 Y33.511 Z-0.974 I0.474 J-1.432
X41.244 Y36.374 Z-1.14 I-0.474 J1.432
X42.193 Y33.511 Z-1.305 I0.474 J-1.432
X41.244 Y36.374 Z-1.471 I-0.474 J1.432
X42.193 Y33.511 Z-1.636 I0.474 J-1.432
X41.244 Y36.374 Z-1.802 I-0.474 J1.432
X42.193 Y33.511 Z-1.967 I0.474 J-1.432
X41.244 Y36.374 Z-2.133 I-0.474 J1.432
X42.193 Y33.511 Z-2.298 I0.474 J-1.432
X41.244 Y36.374 Z-2.464 I-0.474 J1.432
X40.44 Y35.742 Z-2.5 I0.474 J-1.432
X42.095 Y34.707 I0.828 J-0.518
G2 X42.427 Y35.236 I152.784 J-95.547 F1000
X43.496 Y36.733 I13.575 J-8.555
X44.711 Y38.114 I16.049 J-12.899
X45.044 Y38.394 I1.5 J-1.444
G3 X45.395 Y38.652 I-3.302 J4.88
G1 X45.422 Y38.681
X45.438 Y38.717
X45.441 Y38.757
X45.43 Y38.795
X45.408 Y38.828
X45.377 Y38.852
X45.339 Y38.865
X45.299 Y38.864
G3 X43.153 Y37.671 I0.693 J-3.774
X41.666 Y35.716 I10.381 J-9.434
X40.588 Y33.851 I24.057 J-15.161
G2 X39.562 Y31.957 I-96.872 J51.243
X39.196 Y31.419 I-3.113 J1.726
G3 X38.805 Y30.899 I5.522 J-4.55
X38.956 Y30.666 I0.124 J-0.085
G1 X39.047 Y30.682
X39.096 Y30.698
X39.138 Y30.719
X39.182 Y30.745
X39.237 Y30.787
X39.288 Y30.834
X39.386 Y30.931
G3 X41.036 Y32.992 I-7.201 J7.46
G2 X42.095 Y34.707 I153.843 J-93.832
X43.008 Y35.118 I0.764 J-0.478
G3 X43.928 Y35.513 I0.153 J0.911
G1 X44.048 Y35.692
X44.116 Y35.786
X44.757 Y36.603
X44.808 Y36.665
X44.863 Y36.724
X45.484 Y37.369
X45.561 Y37.444
X45.643 Y37.514
X46.256 Y37.998
G2 X46.484 Y38.149 I0.984 J-1.245
G1 X47.1 Y38.482
G2 X47.392 Y38.604 I0.756 J-1.396
G1 X48.021 Y38.797
G2 X48.336 Y38.859 I0.464 J-1.518
G1 X48.99 Y38.921
G2 X49.284 Y38.922 I0.15 J-1.58
G1 X50.586 Y38.803
X50.607 Y38.801
X50.21 Y39.135
X49.427 Y39.63
X48.811 Y39.888
X48.074 Y40.023
X47.61 Y40.052
X47.004 Y40.061
X45.657 Y39.994
X44.586 Y39.797
X43.705 Y39.465
X42.913 Y38.964
X42.121 Y38.22
X41.284 Y37.156
X40.382 Y35.724
X39.378 Y33.868
X39.37 Y33.853
X38.611 Y32.484
X38.534 Y32.359
X37.79 Y31.267
X37.725 Y31.179
X37.655 Y31.096
X36.908 Y30.271
G2 X36.676 Y30.06 I-1.177 J1.065
G1 X35.973 Y29.54
X37.505
X38.259 Y29.548
X38.773 Y29.572
X39.406 Y29.682
X39.77 Y29.866
X40.331 Y30.349
X40.833 Y30.893
X41.436 Y31.656
X42.637 Y33.465
X43.332 Y34.624
X43.376 Y34.694
X43.928 Y35.513
X43.955 Y35.567 Z-2.488
X43.971 Y35.625 Z-2.476
X43.976 Y35.677 Z-2.441
X43.972 Y35.728 Z-2.407
X43.954 Y35.794 Z-2.304
X43.944 Y35.816 Z-2.183
Z5
X28.122 Y45.23
Z2.817 F300
X28.106 Y45.247 Z2.698 F500
X28.06 Y45.294 Z2.597
X27.987 Y45.361 Z2.527
X27.895 Y45.435 Z2.5
G3 X26.114 Y43 Z2.335 I-0.89 J-1.217
X27.895 Y45.435 Z2.169 I0.89 J1.217
X26.114 Y43 Z2.004 I-0.89 J-1.217
X27.895 Y45.435 Z1.838 I0.89 J1.217
X26.114 Y43 Z1.673 I-0.89 J-1.217
X27.895 Y45.435 Z1.507 I0.89 J1.217
X26.114 Y43 Z1.342 I-0.89 J-1.217
X27.895 Y45.435 Z1.176 I0.89 J1.217
X26.114 Y43 Z1.011 I-0.89 J-1.217
X27.895 Y45.435 Z0.845 I0.89 J1.217
X26.114 Y43 Z0.68 I-0.89 J-1.217
X27.895 Y45.435 Z0.515 I0.89 J1.217
X26.114 Y43 Z0.349 I-0.89 J-1.217
X27.895 Y45.435 Z0.184 I0.89 J1.217
X26.114 Y43 Z0.018 I-0.89 J-1.217
X27.895 Y45.435 Z-0.147 I0.89 J1.217
X26.114 Y43 Z-0.313 I-0.89 J-1.217
X27.895 Y45.435 Z-0.478 I0.89 J1.217
X26.114 Y43 Z-0.644 I-0.89 J-1.217
X27.895 Y45.435 Z-0.809 I0.89 J1.217
X26.114 Y43 Z-0.974 I-0.89 J-1.217
X27.895 Y45.435 Z-1.14 I0.89 J1.217
X26.114 Y43 Z-1.305 I-0.89 J-1.217
X27.895 Y45.435 Z-1.471 I0.89 J1.217
X26.114 Y43 Z-1.636 I-0.89 J-1.217
X27.895 Y45.435 Z-1.802 I0.89 J1.217
X26.114 Y43 Z-1.967 I-0.89 J-1.217
X27.895 Y45.435 Z-2.133 I0.89 J1.217
X26.114 Y43 Z-2.298 I-0.89 J-1.217
X27.895 Y45.435 Z-2.464 I0.89 J1.217
X26.913 Y45.723 Z-2.5 I-0.89 J-1.217
X27.042 Y43.6 I0.065 J-1.061
G2 X27.962 Y43.6 I0.464 J-7.616 F1000
X28.982 Y43.486 I-0.587 J-9.798
X29.964 Y43.186 I-0.639 J-3.852
X30.287 Y43.026 I-2.395 J-5.249
G3 X30.61 Y42.866 I2.718 J5.089
G1 X30.649 Y42.856
X30.69 Y42.858
X30.727 Y42.873
X30.758 Y42.899
X30.779 Y42.934
X30.788 Y42.973
X30.784 Y43.014
X30.767 Y43.051
X30.743 Y43.085
X30.718 Y43.119
X30.652 Y43.197
X30.581 Y43.27
X30.432 Y43.408
G3 X29.766 Y43.961 I-7.585 J-8.454
X29.002 Y44.37 I-1.614 J-2.101
X27.349 Y44.64 I-1.644 J-4.855
X25.677 Y44.542 I0.024 J-14.664
X23.815 Y44.19 I1.547 J-13.284
X22.009 Y43.615 I4.795 J-18.19
G2 X21.697 Y43.503 I-4.517 J12.055
G3 X21.388 Y43.383 I1.402 J-4.057
G1 X20.622 Y43.05
G3 X19.89 Y42.653 I1.934 J-4.45
X19.786 Y42.199 I0.185 J-0.282
G1 X20.107 Y41.66
G3 X20.577 Y41.51 I0.32 J0.191
X21.535 Y41.976 I-5.962 J13.491
G2 X22.51 Y42.405 I3.422 J-6.441
X24.207 Y42.967 I13.335 J-37.443
X25.931 Y43.436 I8.302 J-27.11
X26.941 Y43.593 I1.484 J-6.22
G1 X27.042 Y43.6
G2 X27.99 Y43.012 I0.059 J-0.964
G3 X28.873 Y42.329 I1.048 J0.443
G1 X29.074 Y42.3
G2 X29.502 Y42.173 I-0.231 J-1.571
G1 X30.373 Y41.776
G2 X30.767 Y41.519 I-0.659 J-1.444
G1 X31.487 Y40.881
G2 X31.666 Y40.694 I-1.053 J-1.188
G1 X32.062 Y40.206
X32.148 Y40.091
X32.435 Y39.664
G2 X32.559 Y39.444 I-1.317 J-0.886
G1 X32.737 Y39.058
G2 X32.854 Y38.691 I-1.442 J-0.665
G1 X32.868 Y38.621
X32.944 Y38.937
X33.017 Y39.931
X32.904 Y40.938
X32.613 Y41.953
X32.163 Y42.924
X31.579 Y43.799
X30.896 Y44.533
X30.152 Y45.088
X29.368 Y45.451
X28.31 Y45.687
X27.009 Y45.765
X25.545 Y45.672
X23.997 Y45.409
X22.437 Y44.989
X20.935 Y44.426
X19.559 Y43.741
X18.323 Y42.928
X18.156 Y42.801
X19.861 Y39.943
X20.764 Y40.398
X20.837 Y40.433
X22.782 Y41.292
X22.891 Y41.336
X24.579 Y41.937
X24.66 Y41.963
X24.743 Y41.985
X26.194 Y42.331
X26.317 Y42.356
X26.441 Y42.37
X27.678 Y42.465
G2 X28.03 Y42.453 I0.121 J-1.583
G1 X28.873 Y42.329
X28.934 Y42.328 Z-2.488
X28.993 Y42.338 Z-2.476
X29.042 Y42.356 Z-2.441
X29.086 Y42.382 Z-2.407
X29.138 Y42.427 Z-2.304
X29.154 Y42.445 Z-2.183
Z15
M5
G28
M30
