(OmKey1)
(Machine)
(  vendor: Makera)
(  model: Carvera 3-axis)
(  description: Makera Carvera 3-axis)
(T6  D=3.175 CR=0 TAPER=45deg - ZMIN=-2.5 - chamfer mill)
G90 G94
G17
G21
(When using Fusion for Personal Use, the feedrate of rapid)
(moves is reduced to match the feedrate of cutting moves,)
(which can increase machining time. Unrestricted rapid moves)
(are available with a Fusion Subscription.)

(2D Pocket1)
T6 M6
S12000 M3
G54
G0 X41.435 Y35.594
Z15
G1 Z5 F300
Z2.817 F200
X41.458 Y35.596 Z2.698 F333.3
X41.524 Y35.604 Z2.597
X41.622 Y35.621 Z2.527
X41.736 Y35.65 Z2.5
G3 X40.884 Y38.543 Z2.335 I-0.426 J1.447
X41.736 Y35.65 Z2.169 I0.426 J-1.447
X40.884 Y38.543 Z2.004 I-0.426 J1.447
X41.736 Y35.65 Z1.838 I0.426 J-1.447
X40.884 Y38.543 Z1.673 I-0.426 J1.447
X41.736 Y35.65 Z1.507 I0.426 J-1.447
X40.884 Y38.543 Z1.342 I-0.426 J1.447
X41.736 Y35.65 Z1.176 I0.426 J-1.447
X40.884 Y38.543 Z1.011 I-0.426 J1.447
X41.736 Y35.65 Z0.845 I0.426 J-1.447
X40.884 Y38.543 Z0.68 I-0.426 J1.447
X41.736 Y35.65 Z0.515 I0.426 J-1.447
X40.884 Y38.543 Z0.349 I-0.426 J1.447
X41.736 Y35.65 Z0.184 I0.426 J-1.447
X40.884 Y38.543 Z0.018 I-0.426 J1.447
X41.736 Y35.65 Z-0.147 I0.426 J-1.447
X40.884 Y38.543 Z-0.313 I-0.426 J1.447
X41.736 Y35.65 Z-0.478 I0.426 J-1.447
X40.884 Y38.543 Z-0.644 I-0.426 J1.447
X41.736 Y35.65 Z-0.809 I0.426 J-1.447
X40.884 Y38.543 Z-0.974 I-0.426 J1.447
X41.736 Y35.65 Z-1.14 I0.426 J-1.447
X40.884 Y38.543 Z-1.305 I-0.426 J1.447
X41.736 Y35.65 Z-1.471 I0.426 J-1.447
X40.884 Y38.543 Z-1.636 I-0.426 J1.447
X41.736 Y35.65 Z-1.802 I0.426 J-1.447
X40.884 Y38.543 Z-1.967 I-0.426 J1.447
X41.736 Y35.65 Z-2.133 I0.426 J-1.447
X40.884 Y38.543 Z-2.298 I-0.426 J1.447
X41.736 Y35.65 Z-2.464 I0.426 J-1.447
X42.561 Y36.255 Z-2.5 I-0.426 J1.447
G1 X42.661 Y36.403 F300
X42.55 Y36.262
X42.313 Y35.885
X42.561 Y36.255
X42.58 Y36.27
X42.603 Y36.272
X42.627 Y36.274
X42.645 Y36.289
X42.806 Y36.528
X42.87 Y36.62
X42.938 Y36.71
X43.579 Y37.527
X43.604 Y37.559
X43.228 Y37.205
X42.509 Y36.291
X41.675 Y34.968
X40.963 Y33.651
X41.371 Y34.265
X42.048 Y35.394
X42.134 Y35.529
X42.645 Y36.289
X42.664 Y36.304
X42.688 Y36.307
X42.711 Y36.309
X42.73 Y36.324
X42.848 Y36.499
X42.911 Y36.59
X42.978 Y36.679
X43.619 Y37.496
G2 X43.821 Y37.727 I2.387 J-1.873
G1 X44.065 Y37.981
X43.803 Y37.815
X43.191 Y37.24
X42.467 Y36.321
X41.631 Y34.994
X40.651 Y33.18
X40.635 Y33.152
X40.344 Y32.627
X41.414 Y34.238
X42.092 Y35.368
X42.176 Y35.501
X42.73 Y36.324
X42.748 Y36.339
X42.772 Y36.342
X42.796 Y36.344
X42.814 Y36.359
X42.89 Y36.471
X43.018 Y36.648
X43.659 Y37.465
G2 X43.857 Y37.692 I2.347 J-1.842
G1 X44.369 Y38.224
X44.331 Y38.209
X43.772 Y37.856
X43.153 Y37.274
X42.426 Y36.35
X41.587 Y35.019
X40.606 Y33.204
X40.591 Y33.176
X39.963 Y32.043
X40.305 Y32.477
X41.457 Y34.211
X42.135 Y35.342
X42.218 Y35.473
X42.814 Y36.359
X42.834 Y36.375
X42.858 Y36.377
X42.883 Y36.379
X42.902 Y36.395
X42.934 Y36.442
X43.06 Y36.615
X43.701 Y37.432
G2 X43.895 Y37.655 I2.306 J-1.809
G1 X44.516 Y38.301
X44.571 Y38.356
X44.307 Y38.257
X43.739 Y37.897
X43.114 Y37.31
X42.383 Y36.38
X41.542 Y35.046
X40.56 Y33.229
X40.545 Y33.202
X39.786 Y31.833
G2 X39.644 Y31.603 I-2.563 J1.421
G1 X39.598 Y31.535
X39.811 Y31.766
X40.348 Y32.446
X41.501 Y34.182
X42.18 Y35.315
X42.262 Y35.443
X42.902 Y36.395
X42.921 Y36.411
X42.946 Y36.413
X42.971 Y36.416
X42.99 Y36.431
X43.101 Y36.583
X43.742 Y37.4
G2 X43.933 Y37.619 I2.264 J-1.777
G1 X44.554 Y38.265
G2 X44.815 Y38.504 I2.074 J-1.996
G1 X44.284 Y38.304
X43.707 Y37.939
X43.075 Y37.345
X42.34 Y36.411
X41.497 Y35.072
X40.514 Y33.254
X40.499 Y33.227
X39.74 Y31.858
G2 X39.601 Y31.632 I-2.517 J1.396
G1 X39.257 Y31.128
X39.433 Y31.279
X39.851 Y31.732
X40.391 Y32.415
X41.546 Y34.154
X42.225 Y35.288
X42.305 Y35.414
X42.977 Y36.413
X42.99 Y36.431
X43.01 Y36.447
X43.036 Y36.45
X43.062 Y36.452
X43.083 Y36.467
X43.144 Y36.549
X43.785 Y37.366
G2 X43.972 Y37.581 I2.221 J-1.743
G1 X44.594 Y38.226
G2 X44.877 Y38.483 I2.034 J-1.958
G1 X45.06 Y38.628
X44.918 Y38.602
X44.259 Y38.353
X43.673 Y37.983
X43.035 Y37.383
X42.295 Y36.442
X41.449 Y35.1
X40.466 Y33.281
X40.451 Y33.254
X39.692 Y31.885
G2 X39.556 Y31.663 I-2.469 J1.369
G1 X39.014 Y30.869
X39.078 Y30.901
X39.471 Y31.239
X39.892 Y31.696
X40.435 Y32.382
X41.592 Y34.125
X42.272 Y35.259
X42.351 Y35.383
X43.023 Y36.382
X43.083 Y36.467
X43.097 Y36.481
X43.115 Y36.487
X43.134 Y36.486
X43.154 Y36.485
X43.172 Y36.492
X43.186 Y36.504
X43.192 Y36.511
X43.833 Y37.328
G2 X44.016 Y37.539 I2.173 J-1.705
G1 X44.637 Y38.184
G2 X44.915 Y38.436 I1.99 J-1.916
G1 X45.288 Y38.731
X44.901 Y38.66
X44.232 Y38.408
X43.636 Y38.031
X42.99 Y37.424
X42.245 Y36.477
X41.397 Y35.131
X40.412 Y33.309
X40.398 Y33.283
X39.639 Y31.914
G2 X39.506 Y31.698 I-2.416 J1.34
G1 X38.883 Y30.784
X39.032 Y30.81
X39.112 Y30.851
X39.513 Y31.195
X39.939 Y31.657
X40.484 Y32.347
X41.644 Y34.093
X42.324 Y35.228
X42.401 Y35.35
X43.073 Y36.348
X43.186 Y36.504
X43.201 Y36.517
X43.219 Y36.523
X43.238 Y36.521
X43.257 Y36.52
X43.276 Y36.526
X43.29 Y36.539
X43.881 Y37.291
G2 X44.06 Y37.497 I2.126 J-1.668
G1 X44.681 Y38.142
G2 X44.952 Y38.388 I1.947 J-1.874
G1 X45.517 Y38.835
X44.885 Y38.719
X44.205 Y38.462
X43.599 Y38.079
X42.945 Y37.465
X42.196 Y36.512
X41.344 Y35.161
X40.359 Y33.338
X40.345 Y33.313
X39.586 Y31.943
X39.523 Y31.836
X39.456 Y31.732
X38.752 Y30.7
X39.051 Y30.752
X39.146 Y30.8
X39.556 Y31.152
X39.985 Y31.617
X40.533 Y32.311
X41.695 Y34.06
X42.376 Y35.197
X42.452 Y35.316
X43.123 Y36.314
X43.24 Y36.474
X43.29 Y36.539
X43.305 Y36.551
X43.323 Y36.557
X43.342 Y36.556
X43.361 Y36.554
X43.379 Y36.56
X43.394 Y36.573
X43.928 Y37.254
G2 X44.103 Y37.455 I2.078 J-1.631
G1 X44.725 Y38.1
G2 X44.99 Y38.341 I1.903 J-1.832
G1 X45.603 Y38.825
X45.761 Y38.941
X44.869 Y38.777
X44.178 Y38.517
X43.561 Y38.127
X42.9 Y37.506
X42.146 Y36.547
X41.292 Y35.192
X40.306 Y33.367
X40.292 Y33.342
X39.533 Y31.973
X39.472 Y31.868
X39.406 Y31.766
X38.661 Y30.673
X38.624 Y30.62
X38.657 Y30.622
X39.07 Y30.694
X39.18 Y30.749
X39.598 Y31.108
X40.031 Y31.578
X40.582 Y32.276
X41.746 Y34.028
X42.428 Y35.166
X42.502 Y35.282
X43.173 Y36.28
X43.287 Y36.437
X43.394 Y36.573
X43.408 Y36.585
X43.426 Y36.591
X43.446 Y36.59
X43.465 Y36.588
X43.483 Y36.594
X43.497 Y36.607
X43.976 Y37.216
G2 X44.147 Y37.413 I2.031 J-1.593
G1 X44.768 Y38.059
G2 X45.027 Y38.293 I1.86 J-1.79
G1 X45.64 Y38.778
G2 X45.999 Y39.016 I1.6 J-2.025
G1 X45.772 Y39.004
X44.853 Y38.836
X44.15 Y38.571
X43.524 Y38.175
X42.856 Y37.547
X42.097 Y36.582
X41.24 Y35.222
X40.253 Y33.396
X40.239 Y33.371
X39.48 Y32.002
X39.42 Y31.899
X39.356 Y31.8
X38.611 Y30.707
X38.498 Y30.554
X38.664 Y30.562
X39.09 Y30.636
X39.213 Y30.699
X39.64 Y31.065
X40.077 Y31.539
X40.631 Y32.24
X41.797 Y33.996
X42.48 Y35.135
X42.552 Y35.248
X43.224 Y36.247
X43.335 Y36.399
X43.497 Y36.607
X43.512 Y36.619
X43.529 Y36.625
X43.548 Y36.623
X43.567 Y36.622
X43.585 Y36.628
X43.599 Y36.64
X44.023 Y37.18
G2 X44.19 Y37.372 I1.984 J-1.557
G1 X44.811 Y38.017
G2 X45.064 Y38.247 I1.817 J-1.749
G1 X45.677 Y38.731
G2 X46.039 Y38.97 I1.564 J-1.978
G1 X46.258 Y39.088
X45.765 Y39.064
X44.837 Y38.893
X44.124 Y38.625
X43.488 Y38.222
X42.812 Y37.587
X42.048 Y36.616
X41.188 Y35.252
X40.2 Y33.424
X40.187 Y33.4
X39.428 Y32.031
X39.369 Y31.931
X39.306 Y31.833
X38.562 Y30.741
G2 X38.365 Y30.488 I-2.084 J1.42
G1 X38.67 Y30.502
X39.109 Y30.579
X39.247 Y30.649
X39.681 Y31.022
X40.122 Y31.5
X40.679 Y32.205
X41.847 Y33.964
X42.531 Y35.104
X42.601 Y35.215
X43.273 Y36.213
X43.382 Y36.363
X43.599 Y36.64
X43.614 Y36.652
X43.631 Y36.658
X43.65 Y36.657
X43.669 Y36.656
X43.687 Y36.661
X43.701 Y36.674
X44.069 Y37.143
X44.149 Y37.239
X44.233 Y37.33
X44.854 Y37.976
G2 X45.101 Y38.2 I1.774 J-1.708
G1 X45.714 Y38.684
G2 X46.068 Y38.918 I1.527 J-1.932
G1 X46.517 Y39.161
X45.758 Y39.123
X44.821 Y38.951
X44.097 Y38.678
X43.451 Y38.27
X42.768 Y37.627
X41.999 Y36.651
X41.137 Y35.282
X40.148 Y33.452
X40.135 Y33.429
X39.376 Y32.06
X39.319 Y31.962
X39.257 Y31.867
X38.513 Y30.775
G2 X38.303 Y30.509 I-2.034 J1.387
G1 X38.225 Y30.422
X38.677 Y30.443
X39.128 Y30.522
X39.28 Y30.599
X39.723 Y30.979
X40.167 Y31.461
X40.728 Y32.17
X41.898 Y33.932
X42.582 Y35.074
X42.651 Y35.182
X43.322 Y36.18
X43.428 Y36.326
X43.701 Y36.674
X43.716 Y36.686
X43.733 Y36.692
X43.752 Y36.69
X43.771 Y36.689
X43.789 Y36.695
X43.803 Y36.707
X44.116 Y37.106
X44.194 Y37.2
X44.275 Y37.289
X44.897 Y37.935
G2 X45.138 Y38.153 I1.731 J-1.666
G1 X45.751 Y38.638
G2 X46.096 Y38.865 I1.49 J-1.885
G1 X46.712 Y39.199
X46.778 Y39.233
X45.751 Y39.182
X44.805 Y39.008
X44.07 Y38.732
X43.414 Y38.317
X42.724 Y37.668
X41.951 Y36.685
X41.086 Y35.313
X40.095 Y33.481
X40.083 Y33.458
X39.324 Y32.089
X39.268 Y31.993
X39.208 Y31.9
X38.463 Y30.808
G2 X38.259 Y30.549 I-1.985 J1.353
G1 X38.089 Y30.361
X38.236 Y30.363
X38.683 Y30.384
X39.147 Y30.465
X39.313 Y30.549
X39.764 Y30.936
X40.213 Y31.422
X40.776 Y32.135
X41.948 Y33.9
X42.633 Y35.043
X42.7 Y35.149
X43.372 Y36.147
X43.475 Y36.289
X43.803 Y36.707
X43.817 Y36.719
X43.835 Y36.725
X43.853 Y36.724
X43.872 Y36.722
X43.889 Y36.728
X43.904 Y36.74
X44.162 Y37.07
X44.238 Y37.161
X44.318 Y37.249
X44.939 Y37.894
G2 X45.174 Y38.107 I1.689 J-1.626
G1 X45.787 Y38.592
G2 X46.124 Y38.814 I1.453 J-1.839
G1 X46.74 Y39.147
G2 X47.094 Y39.303 I1.117 J-2.061
G1 X47.018 Y39.304
X45.744 Y39.241
X44.789 Y39.065
X44.044 Y38.784
X43.378 Y38.363
X42.68 Y37.707
X41.903 Y36.719
X41.035 Y35.342
X40.044 Y33.508
X40.032 Y33.486
X39.273 Y32.117
X39.218 Y32.024
X39.16 Y31.933
X38.415 Y30.841
G2 X38.216 Y30.588 I-1.937 J1.32
G1 X37.956 Y30.301
X38.237 Y30.304
X38.69 Y30.325
X39.165 Y30.408
X39.346 Y30.5
X39.805 Y30.894
X40.257 Y31.384
X40.823 Y32.101
X41.998 Y33.869
X42.683 Y35.013
X42.749 Y35.116
X43.42 Y36.114
X43.521 Y36.253
X43.904 Y36.74
X43.925 Y36.756
X43.952
X43.979 Y36.757
X44.001 Y36.772
X44.207 Y37.035
X44.281 Y37.124
X44.359 Y37.209
X44.98 Y37.855
G2 X45.21 Y38.063 I1.648 J-1.586
G1 X45.822 Y38.547
G2 X46.151 Y38.764 I1.418 J-1.794
G1 X46.767 Y39.097
G2 X47.187 Y39.273 I1.089 J-2.011
G1 X47.453 Y39.355
X47.017 Y39.361
X45.738 Y39.297
X44.774 Y39.12
X44.019 Y38.836
X43.343 Y38.408
X42.638 Y37.746
X41.856 Y36.752
X40.986 Y35.371
X39.994 Y33.535
X39.982 Y33.514
X39.223 Y32.145
X39.17 Y32.054
X39.113 Y31.965
X38.368 Y30.873
G2 X38.174 Y30.626 I-1.89 J1.288
G1 X37.827 Y30.243
X38.239 Y30.247
X38.696 Y30.269
X39.183 Y30.354
X39.378 Y30.452
X39.844 Y30.853
X40.3 Y31.347
X40.869 Y32.067
X42.046 Y33.839
X42.732 Y34.984
X42.796 Y35.084
X43.468 Y36.083
X43.566 Y36.218
X44.001 Y36.772
X44.023 Y36.787
X44.049 Y36.788
X44.076 Y36.789
X44.097 Y36.804
X44.251 Y37
X44.323 Y37.087
X44.399 Y37.17
X45.021 Y37.815
G2 X45.244 Y38.019 I1.607 J-1.547
G1 X45.857 Y38.503
G2 X46.178 Y38.714 I1.383 J-1.75
G1 X46.794 Y39.048
G2 X47.204 Y39.219 I1.063 J-1.961
G1 X47.783 Y39.397
X47.585 Y39.409
X47.016 Y39.417
X45.731 Y39.353
X44.759 Y39.175
X43.993 Y38.886
X43.309 Y38.453
X42.597 Y37.784
X41.81 Y36.784
X40.937 Y35.399
X39.944 Y33.562
X39.933 Y33.541
X39.174 Y32.172
X39.122 Y32.083
X39.066 Y31.997
X38.322 Y30.905
G2 X38.132 Y30.664 I-1.843 J1.256
G1 X37.699 Y30.186
X38.241 Y30.191
X38.702 Y30.213
X39.201 Y30.3
X39.41 Y30.405
X39.884 Y30.812
X40.343 Y31.311
X40.915 Y32.034
X42.093 Y33.809
X42.78 Y34.955
X42.843 Y35.053
X43.514 Y36.051
X43.61 Y36.183
X44.097 Y36.804
X44.111 Y36.816
X44.128 Y36.821
X44.147 Y36.82
X44.165 Y36.819
X44.182 Y36.824
X44.196 Y36.836
X44.297 Y36.965
X44.366 Y37.049
X44.441 Y37.13
X45.062 Y37.776
G2 X45.28 Y37.973 I1.566 J-1.507
G1 X45.893 Y38.458
G2 X46.205 Y38.664 I1.348 J-1.705
G1 X46.821 Y38.997
G2 X47.22 Y39.165 I1.035 J-1.911
G1 X47.85 Y39.357
G2 X48.114 Y39.42 I0.636 J-2.078
G1 X48.003 Y39.441
X47.587 Y39.466
X47.015 Y39.475
X45.725 Y39.41
X44.743 Y39.23
X43.968 Y38.938
X43.273 Y38.499
X42.554 Y37.823
X41.763 Y36.818
X40.888 Y35.428
X39.894 Y33.59
X39.883 Y33.569
X39.123 Y32.2
X39.073 Y32.113
X39.019 Y32.029
X38.274 Y30.937
G2 X38.089 Y30.703 I-1.796 J1.224
G1 X37.568 Y30.127
X38.242 Y30.133
X38.709 Y30.156
X39.22 Y30.245
X39.442 Y30.357
X39.923 Y30.771
X40.387 Y31.274
X40.962 Y32.001
X42.142 Y33.778
X42.83 Y34.925
X42.89 Y35.021
X43.562 Y36.019
X43.656 Y36.148
X44.196 Y36.836
X44.218 Y36.852
X44.245
X44.272 Y36.853
X44.293 Y36.868
X44.341 Y36.929
X44.41 Y37.012
X44.482 Y37.091
X45.103 Y37.736
G2 X45.315 Y37.929 I1.525 J-1.468
G1 X45.928 Y38.413
G2 X46.233 Y38.614 I1.312 J-1.66
G1 X46.848 Y38.947
G2 X47.237 Y39.11 I1.008 J-1.861
G1 X47.866 Y39.303
G2 X48.286 Y39.386 I0.619 J-2.024
G1 X48.505 Y39.406
X48.01 Y39.497
X47.589 Y39.523
X47.014 Y39.532
X45.718 Y39.467
X44.728 Y39.285
X43.942 Y38.989
X43.238 Y38.544
X42.512 Y37.861
X41.716 Y36.851
X40.838 Y35.457
X39.844 Y33.617
X39.833 Y33.597
X39.074 Y32.227
X39.024 Y32.143
X38.971 Y32.062
X38.227 Y30.969
G2 X38.047 Y30.741 I-1.749 J1.192
G1 X37.439 Y30.069
X37.502
X38.244 Y30.076
X38.715 Y30.099
X39.238 Y30.19
X39.474 Y30.309
X39.963 Y30.73
X40.43 Y31.236
X41.008 Y31.967
X42.19 Y33.748
X42.879 Y34.896
X42.938 Y34.989
X43.609 Y35.987
X43.7 Y36.112
X44.293 Y36.868
X44.315 Y36.883
X44.341 Y36.884
X44.367 Y36.885
X44.388 Y36.899
X44.453 Y36.977
X44.522 Y37.052
X45.143 Y37.698
G2 X45.35 Y37.885 I1.485 J-1.429
G1 X45.963 Y38.37
G2 X46.259 Y38.565 I1.278 J-1.617
G1 X46.875 Y38.898
G2 X47.253 Y39.057 I0.982 J-1.812
G1 X47.883 Y39.249
G2 X48.291 Y39.33 I0.603 J-1.971
G1 X48.801 Y39.379
X48.675 Y39.432
X48.017 Y39.552
X47.592 Y39.579
X47.013 Y39.587
X45.711 Y39.522
X44.713 Y39.339
X43.917 Y39.039
X43.204 Y38.588
X42.471 Y37.899
X41.671 Y36.883
X40.79 Y35.485
X39.795 Y33.643
X39.784 Y33.624
X39.025 Y32.254
X38.977 Y32.172
X38.926 Y32.093
X38.181 Y31.001
G2 X38.006 Y30.778 I-1.703 J1.161
G1 X37.314 Y30.014
X37.503
X38.246 Y30.021
X38.721 Y30.044
X39.256 Y30.137
X39.505 Y30.263
X40.002 Y30.69
X40.473 Y31.2
X41.053 Y31.934
X42.237 Y33.718
X42.926 Y34.867
X42.984 Y34.958
X43.655 Y35.956
X43.744 Y36.078
X44.385 Y36.895
X44.388 Y36.899
X44.403 Y36.912
X44.422 Y36.918
X44.441 Y36.916
X44.46 Y36.915
X44.479 Y36.92
X44.494 Y36.932
X44.565 Y37.01
X45.187 Y37.656
G2 X45.387 Y37.838 I1.441 J-1.387
G1 X46 Y38.322
G2 X46.288 Y38.512 I1.24 J-1.569
G1 X46.903 Y38.845
G2 X47.271 Y38.999 I0.953 J-1.759
G1 X47.9 Y39.192
G2 X48.297 Y39.27 I0.585 J-1.913
G1 X48.951 Y39.332
X49.053 Y39.339
X48.693 Y39.49
X48.024 Y39.613
X47.594 Y39.639
X47.012 Y39.648
X45.704 Y39.583
X44.697 Y39.398
X43.89 Y39.094
X43.167 Y38.636
X42.426 Y37.94
X41.622 Y36.918
X40.738 Y35.516
X39.742 Y33.672
X39.731 Y33.653
X38.972 Y32.284
X38.926 Y32.204
X38.876 Y32.127
X38.131 Y31.035
G2 X37.961 Y30.819 I-1.653 J1.127
G1 X37.214 Y29.994
X37.176 Y29.953
X37.503
X38.247 Y29.96
X38.728 Y29.983
X39.275 Y30.078
X39.539 Y30.212
X40.044 Y30.646
X40.519 Y31.161
X41.102 Y31.899
X42.288 Y33.686
X42.978 Y34.836
X43.034 Y34.924
X43.706 Y35.922
X43.792 Y36.041
X44.433 Y36.858
X44.494 Y36.932
X44.509 Y36.944
X44.527 Y36.949
X44.546 Y36.946
X44.565 Y36.943
X44.583 Y36.948
X44.598 Y36.959
X44.608 Y36.969
X45.229 Y37.615
G2 X45.424 Y37.791 I1.398 J-1.346
G1 X46.037 Y38.276
G2 X46.316 Y38.46 I1.204 J-1.523
G1 X46.932 Y38.793
G2 X47.288 Y38.943 I0.925 J-1.707
G1 X47.918 Y39.135
G2 X48.302 Y39.211 I0.568 J-1.856
G1 X48.957 Y39.273
G2 X49.316 Y39.274 I0.183 J-1.932
G1 X49.331 Y39.273
X49.263 Y39.316
X48.71 Y39.547
X48.031 Y39.671
X47.596 Y39.698
X47.011 Y39.707
X45.698 Y39.642
X44.681 Y39.455
X43.864 Y39.147
X43.131 Y38.683
X42.382 Y37.98
X41.573 Y36.952
X40.687 Y35.545
X39.69 Y33.7
X39.68 Y33.682
X38.92 Y32.312
X38.875 Y32.235
X38.827 Y32.16
X38.082 Y31.068
G2 X37.917 Y30.858 I-1.604 J1.093
G1 X37.171 Y30.034
X37.102 Y29.962
X37.03 Y29.894
X37.503
X38.249 Y29.901
X38.734 Y29.924
X39.294 Y30.022
X39.572 Y30.163
X40.085 Y30.603
X40.564 Y31.123
X41.15 Y31.864
X42.338 Y33.654
X43.029 Y34.806
X43.083 Y34.891
X43.755 Y35.889
X43.838 Y36.004
X44.479 Y36.821
X44.537 Y36.891
X44.598 Y36.959
X44.614 Y36.97
X44.632 Y36.974
X44.651 Y36.971
X44.67 Y36.968
X44.689 Y36.972
X44.704 Y36.983
X45.273 Y37.573
G2 X45.461 Y37.744 I1.355 J-1.304
G1 X46.074 Y38.229
G2 X46.345 Y38.407 I1.166 J-1.476
G1 X46.96 Y38.74
G2 X47.306 Y38.885 I0.896 J-1.654
G1 X47.935 Y39.077
G2 X48.308 Y39.151 I0.55 J-1.799
G1 X48.962 Y39.213
G2 X49.311 Y39.214 I0.177 J-1.873
G1 X49.574 Y39.19
X49.291 Y39.369
X48.727 Y39.605
X48.039 Y39.731
X47.598 Y39.759
X47.01 Y39.767
X45.691 Y39.701
X44.664 Y39.513
X43.837 Y39.201
X43.093 Y38.731
X42.338 Y38.021
X41.524 Y36.986
X40.635 Y35.576
X39.637 Y33.729
X39.627 Y33.711
X38.868 Y32.341
X38.777 Y32.194
X38.032 Y31.102
G2 X37.873 Y30.899 I-1.554 J1.059
G1 X37.126 Y30.074
G2 X36.863 Y29.834 I-1.394 J1.262
G1 X37.504
X38.251 Y29.841
X38.741 Y29.864
X39.313 Y29.964
X39.605 Y30.112
X40.127 Y30.56
X40.609 Y31.084
X41.199 Y31.829
X42.389 Y33.622
X43.08 Y34.775
X43.133 Y34.857
X43.805 Y35.856
X43.886 Y35.967
X44.527 Y36.784
X44.587 Y36.857
X44.651 Y36.927
X44.704 Y36.983
X44.72 Y36.994
X44.739 Y36.998
X44.757 Y36.994
X44.776 Y36.991
X44.795 Y36.995
X44.81 Y37.006
X45.316 Y37.531
X45.405 Y37.617
X45.499 Y37.697
X46.112 Y38.181
G2 X46.373 Y38.354 I1.129 J-1.428
G1 X46.989 Y38.687
G2 X47.324 Y38.827 I0.867 J-1.601
G1 X47.953 Y39.02
G2 X48.314 Y39.091 I0.533 J-1.741
G1 X48.968 Y39.153
G2 X49.305 Y39.154 I0.172 J-1.813
G1 X49.817 Y39.107
X49.319 Y39.423
X48.744 Y39.663
X48.046 Y39.791
X47.601 Y39.819
X47.009 Y39.827
X45.684 Y39.761
X44.648 Y39.571
X43.81 Y39.255
X43.056 Y38.779
X42.293 Y38.062
X41.475 Y37.021
X40.583 Y35.606
X39.584 Y33.757
X39.574 Y33.74
X38.815 Y32.371
X38.727 Y32.228
X37.983 Y31.136
G2 X37.828 Y30.939 I-1.505 J1.025
G1 X37.081 Y30.114
G2 X36.815 Y29.873 I-1.35 J1.222
G1 X36.681 Y29.774
X37.504
X38.252 Y29.781
X38.747 Y29.804
X39.332 Y29.906
X39.639 Y30.062
X40.169 Y30.517
X40.655 Y31.044
X41.247 Y31.793
X42.44 Y33.59
X43.132 Y34.744
X43.183 Y34.824
X43.855 Y35.822
X43.933 Y35.93
X44.574 Y36.747
X44.632 Y36.818
X44.695 Y36.886
X44.81 Y37.006
X44.826 Y37.017
X44.845 Y37.021
X44.863 Y37.018
X44.882 Y37.014
X44.901 Y37.018
X44.916 Y37.029
X45.359 Y37.489
X45.445 Y37.573
X45.536 Y37.65
X46.149 Y38.134
G2 X46.402 Y38.301 I1.092 J-1.381
G1 X47.018 Y38.634
G2 X47.341 Y38.77 I0.839 J-1.548
G1 X47.97 Y38.962
G2 X48.319 Y39.032 I0.515 J-1.684
G1 X48.974 Y39.094
G2 X49.3 Y39.094 I0.166 J-1.753
G1 X50.06 Y39.025
X49.346 Y39.476
X48.761 Y39.721
X48.053 Y39.851
X47.603 Y39.879
X47.008 Y39.888
X45.677 Y39.821
X44.632 Y39.629
X43.783 Y39.309
X43.019 Y38.827
X42.249 Y38.102
X41.425 Y37.056
X40.531 Y35.637
X39.531 Y33.786
X39.522 Y33.769
X38.763 Y32.4
X38.678 Y32.262
X37.933 Y31.17
X37.861 Y31.072
X37.783 Y30.98
X37.037 Y30.155
G2 X36.779 Y29.921 I-1.305 J1.182
G1 X36.498 Y29.713
X37.504
X38.254 Y29.721
X38.754 Y29.745
X39.351 Y29.849
X39.673 Y30.011
X40.211 Y30.473
X40.701 Y31.005
X41.296 Y31.758
X42.491 Y33.558
X43.184 Y34.713
X43.233 Y34.79
X43.904 Y35.789
X43.98 Y35.893
X44.621 Y36.71
X44.678 Y36.778
X44.738 Y36.844
X44.916 Y37.029
X44.932 Y37.04
X44.95 Y37.044
X44.969 Y37.041
X44.988 Y37.038
X45.007 Y37.042
X45.022 Y37.053
X45.403 Y37.448
X45.485 Y37.528
X45.573 Y37.602
X46.186 Y38.087
G2 X46.431 Y38.248 I1.054 J-1.334
G1 X47.046 Y38.581
G2 X47.359 Y38.712 I0.81 J-1.495
G1 X47.988 Y38.905
G2 X48.325 Y38.972 I0.497 J-1.626
G1 X48.979 Y39.034
G2 X49.294 Y39.034 I0.16 J-1.693
G1 X50.259 Y38.946
X50.143 Y39.044
X49.374 Y39.53
X48.778 Y39.779
X48.061 Y39.911
X47.605 Y39.939
X47.006 Y39.948
X45.67 Y39.881
X44.616 Y39.688
X43.756 Y39.363
X42.982 Y38.874
X42.204 Y38.143
X41.376 Y37.091
X40.479 Y35.667
X39.478 Y33.814
X39.469 Y33.798
X38.71 Y32.429
X38.628 Y32.296
X37.883 Y31.204
X37.814 Y31.109
X37.739 Y31.02
X36.992 Y30.195
G2 X36.743 Y29.97 I-1.261 J1.141
G1 X36.316 Y29.653
X37.504
X38.256 Y29.661
X38.761 Y29.685
X39.37 Y29.791
X39.706 Y29.961
X40.252 Y30.43
X40.747 Y30.966
X41.345 Y31.723
X42.542 Y33.526
X43.235 Y34.682
X43.283 Y34.757
X43.954 Y35.755
X44.028 Y35.856
X44.669 Y36.673
X44.723 Y36.739
X44.781 Y36.802
X45.022 Y37.053
X45.039 Y37.064
X45.058 Y37.068
X45.078 Y37.065
X45.098 Y37.061
X45.117 Y37.066
X45.134 Y37.077
X45.448 Y37.404
X45.528 Y37.481
X45.613 Y37.553
X46.225 Y38.037
G2 X46.461 Y38.192 I1.015 J-1.284
G1 X47.076 Y38.526
G2 X47.377 Y38.652 I0.78 J-1.439
G1 X48.007 Y38.844
G2 X48.331 Y38.909 I0.479 J-1.565
G1 X48.985 Y38.971
G2 X49.289 Y38.971 I0.154 J-1.63
G1 X50.454 Y38.865
X50.18 Y39.095
X49.404 Y39.586
X48.797 Y39.84
X48.068 Y39.974
X47.608 Y40.002
X47.005 Y40.011
X45.662 Y39.944
X44.599 Y39.749
X43.727 Y39.42
X42.943 Y38.925
X42.158 Y38.186
X41.324 Y37.127
X40.424 Y35.699
X39.422 Y33.845
X39.414 Y33.829
X38.654 Y32.46
X38.575 Y32.331
X37.831 Y31.239
X37.764 Y31.148
X37.692 Y31.062
X36.945 Y30.238
G2 X36.705 Y30.021 I-1.214 J1.099
G1 X36.124 Y29.59
X37.505
X38.258 Y29.597
X38.768 Y29.622
X39.391 Y29.73
X39.742 Y29.908
X40.297 Y30.384
X40.795 Y30.925
X41.396 Y31.685
X42.596 Y33.492
X43.29 Y34.649
X43.335 Y34.721
X44.007 Y35.72
X44.077 Y35.817
X44.718 Y36.634
X44.771 Y36.697
X44.827 Y36.758
X45.134 Y37.077
X45.15 Y37.088
X45.17 Y37.093
X45.189 Y37.089
X45.209 Y37.086
X45.229 Y37.09
X45.245 Y37.102
X45.494 Y37.36
X45.57 Y37.434
X45.652 Y37.503
X46.265 Y37.987
G2 X46.491 Y38.137 I0.976 J-1.235
G1 X47.107 Y38.47
G2 X47.396 Y38.591 I0.75 J-1.384
G1 X48.025 Y38.784
G2 X48.337 Y38.846 I0.46 J-1.505
G1 X48.991 Y38.908
G2 X49.283 Y38.908 I0.148 J-1.567
G1 X50.585 Y38.789
X50.651 Y38.782
X50.218 Y39.146
X49.433 Y39.642
X48.815 Y39.901
X48.076 Y40.037
X47.61 Y40.066
X47.004 Y40.074
X45.655 Y40.007
X44.582 Y39.81
X43.699 Y39.477
X42.904 Y38.975
X42.111 Y38.229
X41.273 Y37.164
X40.37 Y35.731
X39.366 Y33.875
X39.358 Y33.86
X38.599 Y32.49
X38.523 Y32.367
X37.779 Y31.275
X37.715 Y31.188
X37.645 Y31.105
X36.898 Y30.28
G2 X36.668 Y30.071 I-1.167 J1.056
G1 X35.932 Y29.527
X37.505
X38.259 Y29.534
X38.775 Y29.558
X39.411 Y29.669
X39.777 Y29.855
X40.341 Y30.339
X40.843 Y30.884
X41.447 Y31.648
X42.649 Y33.458
X43.344 Y34.617
X43.388 Y34.686
X44.059 Y35.684
X44.127 Y35.778
X44.768 Y36.594
X44.819 Y36.656
X44.873 Y36.714
X45.245 Y37.102
X45.261 Y37.113
X45.281 Y37.117
X45.3 Y37.114
X45.319 Y37.11
X45.338 Y37.114
X45.354 Y37.126
X45.539 Y37.317
X45.612 Y37.388
X45.69 Y37.454
X46.303 Y37.939
G2 X46.52 Y38.082 I0.937 J-1.186
G1 X47.136 Y38.416
G2 X47.414 Y38.532 I0.72 J-1.329
G1 X48.043 Y38.724
G2 X48.343 Y38.784 I0.442 J-1.446
G1 X48.997 Y38.846
G2 X49.277 Y38.846 I0.143 J-1.505
G1 X50.579 Y38.727
X50.678 Y38.715
X50.776 Y38.696
X50.876 Y38.674
X50.254 Y39.196
X49.462 Y39.698
X48.833 Y39.961
X48.083 Y40.098
X47.613 Y40.128
X47.003 Y40.136
X45.648 Y40.069
X44.565 Y39.87
X43.671 Y39.533
X42.866 Y39.024
X42.065 Y38.271
X41.222 Y37.2
X40.316 Y35.762
X39.312 Y33.904
X39.304 Y33.89
X38.545 Y32.52
X38.472 Y32.402
X37.727 Y31.31
X37.666 Y31.226
X37.599 Y31.147
X36.852 Y30.322
G2 X36.631 Y30.121 I-1.121 J1.015
G1 X35.865 Y29.555
X35.798 Y29.508
X35.729 Y29.465
X37.505
X38.261 Y29.472
X38.781 Y29.497
X39.431 Y29.61
X39.812 Y29.803
X40.384 Y30.294
X40.89 Y30.844
X41.498 Y31.612
X42.702 Y33.425
X43.397 Y34.585
X43.439 Y34.651
X44.111 Y35.65
X44.176 Y35.739
X44.817 Y36.556
X44.917 Y36.671
X45.354 Y37.126
X45.37 Y37.136
X45.389 Y37.141
X45.407 Y37.137
X45.426 Y37.134
X45.445 Y37.138
X45.461 Y37.149
X45.582 Y37.275
X45.653 Y37.344
X45.728 Y37.407
X46.341 Y37.892
X46.442 Y37.965
X46.549 Y38.029
X47.165 Y38.363
G2 X47.432 Y38.474 I0.691 J-1.276
G1 X48.061 Y38.667
G2 X48.349 Y38.724 I0.425 J-1.388
G1 X49.003 Y38.786
G2 X49.272 Y38.786 I0.137 J-1.445
G1 X50.574 Y38.667
X50.669 Y38.655
X50.762 Y38.638
X51.105 Y38.56
X50.29 Y39.245
X49.49 Y39.751
X48.85 Y40.019
X48.091 Y40.158
X47.615 Y40.188
X47.002 Y40.197
X45.641 Y40.129
X44.549 Y39.928
X43.644 Y39.587
X42.829 Y39.072
X42.02 Y38.312
X41.173 Y37.234
X40.264 Y35.793
X39.259 Y33.933
X39.251 Y33.919
X38.492 Y32.55
X38.422 Y32.436
X37.678 Y31.344
X37.619 Y31.263
X37.554 Y31.187
X36.808 Y30.362
G2 X36.595 Y30.17 I-1.076 J0.974
G1 X35.829 Y29.603
G2 X35.501 Y29.421 I-0.863 J1.167
G1 X35.46 Y29.404
X37.506
X38.263 Y29.412
X38.788 Y29.437
X39.45 Y29.552
X39.846 Y29.753
X40.426 Y30.251
X40.936 Y30.804
X41.546 Y31.576
X42.753 Y33.393
X43.449 Y34.554
X43.489 Y34.618
X44.161 Y35.616
X44.223 Y35.702
X44.864 Y36.519
X44.961 Y36.63
X45.461 Y37.149
X45.476 Y37.159
X45.493 Y37.163
X45.511 Y37.16
X45.53 Y37.157
X45.547 Y37.161
X45.562 Y37.171
X45.624 Y37.235
X45.691 Y37.301
X45.764 Y37.362
X46.376 Y37.846
X46.474 Y37.916
X46.577 Y37.978
X47.192 Y38.312
G2 X47.449 Y38.419 I0.664 J-1.225
G1 X48.078 Y38.611
G2 X48.354 Y38.666 I0.408 J-1.333
G1 X49.008 Y38.728
G2 X49.267 Y38.729 I0.131 J-1.387
G1 X50.569 Y38.61
X50.66 Y38.598
X50.749 Y38.581
X51.319 Y38.452
X50.324 Y39.292
X49.517 Y39.803
X48.866 Y40.075
X48.098 Y40.216
X47.617 Y40.246
X47.001 Y40.255
X45.634 Y40.187
X44.533 Y39.984
X43.618 Y39.639
X42.794 Y39.118
X41.977 Y38.351
X41.125 Y37.268
X40.214 Y35.822
X39.208 Y33.96
X39.201 Y33.947
X38.442 Y32.578
X38.374 Y32.469
X37.63 Y31.376
X37.573 Y31.299
X37.511 Y31.226
X36.765 Y30.401
G2 X36.561 Y30.216 I-1.033 J0.935
G1 X35.795 Y29.65
G2 X35.48 Y29.474 I-0.829 J1.12
G1 X35.157 Y29.346
X37.506
X38.265 Y29.354
X38.794 Y29.379
X39.468 Y29.496
X39.878 Y29.704
X40.466 Y30.209
X40.98 Y30.767
X41.593 Y31.542
X42.801 Y33.362
X43.498 Y34.524
X43.537 Y34.585
X44.209 Y35.584
X44.269 Y35.666
X44.91 Y36.483
X45.002 Y36.589
X45.562 Y37.171
X45.578 Y37.182
X45.595 Y37.186
X45.613 Y37.182
X45.631 Y37.179
X45.649 Y37.183
X45.664 Y37.194
X45.665 Y37.195
X45.73 Y37.258
X45.799 Y37.316
X46.412 Y37.801
X46.506 Y37.868
X46.604 Y37.927
X47.22 Y38.261
G2 X47.465 Y38.364 I0.636 J-1.174
G1 X48.095 Y38.556
G2 X48.359 Y38.609 I0.391 J-1.277
G1 X49.014 Y38.671
X49.137 Y38.676
X49.261 Y38.671
X50.563 Y38.552
X50.651 Y38.541
X50.737 Y38.525
X51.306 Y38.396
X51.396 Y38.372
X51.485 Y38.342
X51.551 Y38.317
X51.492 Y38.386
X50.359 Y39.339
X49.543 Y39.854
X48.883 Y40.131
X48.105 Y40.274
X47.619 Y40.304
X47 Y40.313
X45.628 Y40.244
X44.518 Y40.041
X43.592 Y39.692
X42.758 Y39.164
X41.935 Y38.39
X41.078 Y37.301
X40.164 Y35.851
X39.157 Y33.988
X39.15 Y33.975
X38.391 Y32.606
X38.326 Y32.501
X37.582 Y31.409
X37.528 Y31.335
X37.468 Y31.265
X36.722 Y30.44
G2 X36.526 Y30.263 I-0.99 J0.896
G1 X35.76 Y29.696
G2 X35.459 Y29.528 I-0.795 J1.074
G1 X34.853 Y29.288
X34.898
X37.506
X38.266 Y29.296
X38.801 Y29.321
X39.487 Y29.441
X39.911 Y29.656
X40.506 Y30.167
X41.024 Y30.729
X41.64 Y31.508
X42.85 Y33.331
X43.548 Y34.494
X43.585 Y34.553
X44.257 Y35.552
X44.314 Y35.631
X44.955 Y36.447
X45.044 Y36.549
X45.664 Y37.194
X45.701 Y37.242 Z-2.488
X45.727 Y37.297 Z-2.476
X45.74 Y37.347 Z-2.441
X45.746 Y37.398 Z-2.407
X45.739 Y37.466 Z-2.304
X45.733 Y37.49 Z-2.183
Z5
X48.854 Y46.282
Z2.817 F200
X48.858 Y46.305 Z2.698 F333.3
X48.867 Y46.37 Z2.597
X48.876 Y46.469 Z2.527
X48.878 Y46.587 Z2.5
G3 X45.862 Y46.511 Z2.335 I-1.508 J-0.038
X48.878 Y46.587 Z2.169 I1.508 J0.038
X45.862 Y46.511 Z2.004 I-1.508 J-0.038
X48.878 Y46.587 Z1.838 I1.508 J0.038
X45.862 Y46.511 Z1.673 I-1.508 J-0.038
X48.878 Y46.587 Z1.507 I1.508 J0.038
X45.862 Y46.511 Z1.342 I-1.508 J-0.038
X48.878 Y46.587 Z1.176 I1.508 J0.038
X45.862 Y46.511 Z1.011 I-1.508 J-0.038
X48.878 Y46.587 Z0.845 I1.508 J0.038
X45.862 Y46.511 Z0.68 I-1.508 J-0.038
X48.878 Y46.587 Z0.515 I1.508 J0.038
X45.862 Y46.511 Z0.349 I-1.508 J-0.038
X48.878 Y46.587 Z0.184 I1.508 J0.038
X45.862 Y46.511 Z0.018 I-1.508 J-0.038
X48.878 Y46.587 Z-0.147 I1.508 J0.038
X45.862 Y46.511 Z-0.313 I-1.508 J-0.038
X48.878 Y46.587 Z-0.478 I1.508 J0.038
X45.862 Y46.511 Z-0.644 I-1.508 J-0.038
X48.878 Y46.587 Z-0.809 I1.508 J0.038
X45.862 Y46.511 Z-0.974 I-1.508 J-0.038
X48.878 Y46.587 Z-1.14 I1.508 J0.038
X45.862 Y46.511 Z-1.305 I-1.508 J-0.038
X48.878 Y46.587 Z-1.471 I1.508 J0.038
X45.862 Y46.511 Z-1.636 I-1.508 J-0.038
X48.878 Y46.587 Z-1.802 I1.508 J0.038
X45.862 Y46.511 Z-1.967 I-1.508 J-0.038
X48.878 Y46.587 Z-2.133 I1.508 J0.038
X45.862 Y46.511 Z-2.298 I-1.508 J-0.038
X48.878 Y46.587 Z-2.464 I1.508 J0.038
X48.507 Y47.54 Z-2.5 I-1.508 J-0.038
G1 X48.479 Y47.572 F300
X47.694 Y46.996
X48.542 Y47.499
X48.507 Y47.54
X48.497 Y47.562
X48.501 Y47.586
X48.505 Y47.61
X48.495 Y47.632
X48.487 Y47.641
X47.581 Y46.977
G2 X47.335 Y46.815 I-1.706 J2.328
G1 X46.495 Y46.323
X47.201 Y46.644
X48.619 Y47.486
X48.6 Y47.511
X48.495 Y47.632
X48.487 Y47.647
Y47.665
X48.485 Y47.679
X48.473 Y47.687
X48.459 Y47.684
X47.551 Y47.018
G2 X47.309 Y46.859 I-1.675 J2.286
G1 X45.86 Y46.01
G2 X45.579 Y45.866 I-1.433 J2.446
G1 X45.657 Y45.885
X47.225 Y46.599
X48.695 Y47.471
X48.64 Y47.543
X48.495 Y47.71
X48.459 Y47.684
X48.436 Y47.676
X48.412 Y47.682
X48.388 Y47.688
X48.364 Y47.68
X47.52 Y47.061
G2 X47.282 Y46.905 I-1.644 J2.244
G1 X45.834 Y46.056
G2 X45.532 Y45.903 I-1.406 J2.4
G1 X44.982 Y45.665
X45.675 Y45.835
X47.25 Y46.552
X48.773 Y47.456
X48.681 Y47.577
X48.503 Y47.781
X48.364 Y47.68
X48.341 Y47.671
X48.317 Y47.678
X48.292 Y47.684
X48.269 Y47.676
X47.489 Y47.104
G2 X47.255 Y46.95 I-1.613 J2.201
G1 X45.807 Y46.102
G2 X45.511 Y45.952 I-1.38 J2.354
G1 X44.384 Y45.464
X45.692 Y45.785
X47.274 Y46.505
X48.851 Y47.441
X48.722 Y47.61
X48.51 Y47.852
X48.269 Y47.676
X48.246 Y47.667
X48.221 Y47.673
X48.197 Y47.68
X48.174 Y47.671
X47.457 Y47.146
G2 X47.228 Y46.996 I-1.582 J2.159
G1 X45.78 Y46.147
G2 X45.49 Y46 I-1.353 J2.309
G1 X44.067 Y45.384
G2 X43.711 Y45.259 I-1.063 J2.456
G1 X43.842 Y45.276
X45.71 Y45.735
X47.299 Y46.458
X48.915 Y47.417
X48.929 Y47.427
X48.762 Y47.644
X48.518 Y47.924
X48.174 Y47.671
X48.151 Y47.663
X48.127 Y47.669
X48.103 Y47.675
X48.08 Y47.667
X47.427 Y47.188
G2 X47.202 Y47.041 I-1.551 J2.117
G1 X45.754 Y46.192
G2 X45.47 Y46.048 I-1.327 J2.264
G1 X44.046 Y45.432
G2 X43.697 Y45.309 I-1.042 J2.408
G1 X42.912 Y45.094
X43.852 Y45.225
X45.727 Y45.686
X47.323 Y46.412
X48.944 Y47.374
X49.002 Y47.416
X48.803 Y47.677
X48.526 Y47.994
X48.08 Y47.667
X48.057 Y47.659
X48.034 Y47.665
X48.01 Y47.671
X47.987 Y47.663
X47.396 Y47.23
G2 X47.176 Y47.085 I-1.52 J2.075
G1 X45.728 Y46.237
G2 X45.449 Y46.095 I-1.3 J2.219
G1 X44.025 Y45.479
G2 X43.683 Y45.359 I-1.022 J2.361
G1 X42.281 Y44.975
X42.177 Y44.949
X42.071 Y44.927
X42.092
X43.861 Y45.174
X45.744 Y45.636
X47.347 Y46.366
X48.972 Y47.33
X49.076 Y47.405
X48.843 Y47.71
X48.534 Y48.064
X47.987 Y47.663
X47.963 Y47.655
X47.939 Y47.661
X47.915 Y47.667
X47.892 Y47.659
X47.365 Y47.273
G2 X47.149 Y47.131 I-1.489 J2.032
G1 X45.701 Y46.282
G2 X45.428 Y46.144 I-1.274 J2.174
G1 X44.004 Y45.528
G2 X43.669 Y45.41 I-1.001 J2.312
G1 X42.267 Y45.026
G2 X41.878 Y44.952 I-0.666 J2.43
G1 X41.156 Y44.872
X42.096 Y44.874
X43.871 Y45.122
X45.761 Y45.586
X47.371 Y46.319
X49.001 Y47.286
X49.152 Y47.393
X48.884 Y47.743
X48.542 Y48.135
X47.892 Y47.659
X47.869 Y47.651
X47.845 Y47.657
X47.822 Y47.663
X47.799 Y47.655
X47.334 Y47.314
G2 X47.123 Y47.175 I-1.459 J1.991
G1 X45.675 Y46.327
G2 X45.407 Y46.191 I-1.248 J2.129
G1 X43.984 Y45.575
G2 X43.656 Y45.46 I-0.98 J2.265
G1 X42.254 Y45.076
G2 X41.872 Y45.003 I-0.652 J2.38
G1 X40.489 Y44.85
X40.423 Y44.844
X40.563 Y44.82
X42.1 Y44.823
X43.881 Y45.072
X45.778 Y45.537
X47.395 Y46.273
X49.029 Y47.243
X49.225 Y47.382
X48.924 Y47.776
X48.55 Y48.205
X47.799 Y47.655
X47.775 Y47.646
X47.75 Y47.652
X47.725 Y47.659
X47.701 Y47.65
X47.302 Y47.358
X47.201 Y47.288
X47.096 Y47.223
X45.647 Y46.374
G2 X45.386 Y46.241 I-1.22 J2.082
G1 X43.962 Y45.625
G2 X43.641 Y45.513 I-0.959 J2.215
G1 X42.239 Y45.128
G2 X41.866 Y45.057 I-0.638 J2.327
G1 X40.483 Y44.905
G2 X40.081 Y44.894 I-0.265 J2.399
G1 X39.68 Y44.917
X40.558 Y44.765
X42.103 Y44.768
X43.891 Y45.018
X45.796 Y45.486
X47.42 Y46.225
X49.059 Y47.197
X49.303 Y47.371
X48.966 Y47.81
X48.558 Y48.278
X47.701 Y47.65
X47.678 Y47.642
X47.654 Y47.648
X47.631 Y47.654
X47.608 Y47.646
X47.272 Y47.4
X47.172 Y47.331
X47.07 Y47.267
X45.621 Y46.418
G2 X45.365 Y46.289 I-1.194 J2.038
G1 X43.942 Y45.673
G2 X43.628 Y45.562 I-0.938 J2.167
G1 X42.226 Y45.178
G2 X41.861 Y45.108 I-0.624 J2.278
G1 X40.477 Y44.956
G2 X40.084 Y44.945 I-0.259 J2.347
G1 X39.057 Y45.004
X39.204 Y44.947
X40.554 Y44.713
X42.107 Y44.716
X43.901 Y44.967
X45.813 Y45.437
X47.444 Y46.179
X49.087 Y47.154
X49.376 Y47.36
X49.006 Y47.843
X48.565 Y48.348
X47.608 Y47.646
X47.583 Y47.637
X47.557 Y47.644
X47.531 Y47.65
X47.506 Y47.642
X47.238 Y47.445
X47.141 Y47.378
X47.041 Y47.316
X45.593 Y46.467
G2 X45.343 Y46.34 I-1.165 J1.989
G1 X43.919 Y45.724
G2 X43.613 Y45.617 I-0.916 J2.116
G1 X42.211 Y45.232
G2 X41.855 Y45.164 I-0.609 J2.223
G1 X40.471 Y45.012
G2 X40.087 Y45.002 I-0.253 J2.291
G1 X38.718 Y45.079
X38.705 Y45.08
X39.189 Y44.892
X40.549 Y44.657
X42.111 Y44.66
X43.912 Y44.912
X45.832 Y45.383
X47.47 Y46.129
X49.118 Y47.107
X49.456 Y47.348
X49.05 Y47.879
X48.574 Y48.424
X47.506 Y47.642
X47.481 Y47.633
X47.456 Y47.639
X47.43 Y47.646
X47.405 Y47.637
X47.205 Y47.49
X47.111 Y47.425
X47.013 Y47.364
X45.564 Y46.515
G2 X45.321 Y46.392 I-1.137 J1.941
G1 X43.897 Y45.776
G2 X43.598 Y45.671 I-0.893 J2.064
G1 X42.196 Y45.286
G2 X41.848 Y45.22 I-0.594 J2.169
G1 X40.465 Y45.067
G2 X40.09 Y45.057 I-0.247 J2.236
G1 X38.721 Y45.135
G2 X38.351 Y45.187 I0.128 J2.246
G1 X38.166 Y45.229
X39.174 Y44.838
X40.544 Y44.601
X42.115 Y44.604
X43.922 Y44.857
X45.85 Y45.33
X47.496 Y46.079
X49.149 Y47.06
X49.536 Y47.336
X49.093 Y47.914
X48.582 Y48.5
X47.405 Y47.637
X47.382 Y47.629
X47.358 Y47.635
X47.334 Y47.641
X47.311 Y47.633
X47.174 Y47.533
X47.082 Y47.469
X46.986 Y47.409
X45.538 Y46.561
G2 X45.3 Y46.44 I-1.111 J1.896
G1 X43.876 Y45.824
G2 X43.584 Y45.721 I-0.873 J2.016
G1 X42.182 Y45.337
G2 X41.843 Y45.272 I-0.581 J2.119
G1 X40.459 Y45.119
G2 X40.093 Y45.11 I-0.241 J2.184
G1 X38.724 Y45.188
G2 X38.363 Y45.239 I0.125 J2.193
G1 X37.746 Y45.378
X37.909 Y45.273
X39.16 Y44.787
X40.54 Y44.549
X42.119 Y44.552
X43.932 Y44.805
X45.867 Y45.28
X47.521 Y46.033
X49.177 Y47.016
X49.61 Y47.325
X49.134 Y47.947
X48.59 Y48.57
X47.311 Y47.633
X47.286 Y47.624
X47.26 Y47.631
X47.233 Y47.637
X47.208 Y47.628
X47.14 Y47.579
X47.05 Y47.516
X46.957 Y47.459
X45.509 Y46.61
G2 X45.277 Y46.492 I-1.082 J1.846
G1 X43.854 Y45.876
G2 X43.569 Y45.776 I-0.85 J1.964
G1 X42.167 Y45.392
G2 X41.836 Y45.329 I-0.565 J2.064
G1 X40.453 Y45.176
G2 X40.096 Y45.167 I-0.235 J2.127
G1 X38.727 Y45.245
G2 X38.375 Y45.294 I0.122 J2.136
G1 X37.444 Y45.506
X37.882 Y45.222
X39.144 Y44.732
X40.535 Y44.491
X42.123 Y44.494
X43.943 Y44.749
X45.886 Y45.226
X47.547 Y45.982
X49.209 Y46.968
X49.692 Y47.313
X49.178 Y47.983
X48.599 Y48.647
X47.208 Y47.628
X47.183 Y47.619
X47.156 Y47.626
X47.13 Y47.633
X47.105 Y47.624
X47.018 Y47.564
X46.928 Y47.508
X45.48 Y46.659
G2 X45.254 Y46.545 I-1.053 J1.797
G1 X43.831 Y45.929
G2 X43.554 Y45.832 I-0.827 J1.911
G1 X42.152 Y45.447
G2 X41.83 Y45.386 I-0.55 J2.008
G1 X40.446 Y45.233
G2 X40.1 Y45.224 I-0.228 J2.07
G1 X38.73 Y45.302
G2 X38.388 Y45.35 I0.118 J2.079
G1 X37.142 Y45.633
X37.856 Y45.171
X39.129 Y44.676
X40.53 Y44.434
X42.127 Y44.437
X43.954 Y44.693
X45.905 Y45.172
X47.574 Y45.931
X49.24 Y46.92
X49.773 Y47.3
X49.222 Y48.02
X48.607 Y48.725
X48.583 Y48.707
X47.106 Y47.625
X47.105 Y47.624
X47.088 Y47.616
X47.07 Y47.615
X47.053 Y47.622
X47.027 Y47.629
X47.001 Y47.621
X46.899 Y47.557
X45.451 Y46.709
X45.343 Y46.65
X45.232 Y46.597
X43.808 Y45.981
G2 X43.539 Y45.887 I-0.804 J1.859
G1 X42.137 Y45.503
G2 X41.824 Y45.443 I-0.535 J1.953
G1 X40.44 Y45.29
G2 X40.103 Y45.281 I-0.222 J2.013
G1 X38.734 Y45.359
G2 X38.401 Y45.406 I0.115 J2.022
G1 X37.043 Y45.714
G2 X36.802 Y45.785 I0.448 J1.975
G1 X37.83 Y45.12
X39.113 Y44.621
X40.525 Y44.377
X42.131 Y44.38
X43.965 Y44.637
X45.924 Y45.117
X47.6 Y45.88
X49.271 Y46.872
X49.855 Y47.288
X49.267 Y48.056
X48.615 Y48.803
X48.586 Y48.781
X48.549 Y48.753
X47.073 Y47.671
X47.001 Y47.621
X46.976 Y47.613
X46.952 Y47.621
X46.927 Y47.629
X46.902 Y47.622
X46.872 Y47.604
X45.424 Y46.755
X45.319 Y46.698
X45.21 Y46.647
X43.787 Y46.031
G2 X43.525 Y45.939 I-0.783 J1.809
G1 X42.123 Y45.555
G2 X41.818 Y45.497 I-0.521 J1.901
G1 X40.434 Y45.344
G2 X40.106 Y45.335 I-0.216 J1.959
G1 X38.737 Y45.413
G2 X38.413 Y45.459 I0.112 J1.968
G1 X37.055 Y45.767
G2 X36.762 Y45.858 I0.436 J1.922
G1 X36.416 Y45.995
X36.529 Y45.897
X37.805 Y45.071
X39.099 Y44.569
X40.52 Y44.323
X42.135 Y44.326
X43.975 Y44.583
X45.942 Y45.066
X47.625 Y45.833
X49.301 Y46.826
X49.931 Y47.277
X49.308 Y48.09
X48.622 Y48.877
X48.553 Y48.824
X48.517 Y48.797
X47.041 Y47.715
X46.902 Y47.622
X46.885 Y47.616
X46.867 Y47.617
X46.851 Y47.624
X46.826 Y47.634
X46.799 Y47.627
X45.395 Y46.804
X45.293 Y46.749
X45.188 Y46.699
X43.764 Y46.083
G2 X43.51 Y45.994 I-0.76 J1.757
G1 X42.108 Y45.61
G2 X41.812 Y45.553 I-0.506 J1.846
G1 X40.428 Y45.4
G2 X40.109 Y45.392 I-0.21 J1.903
G1 X38.74 Y45.47
G2 X38.425 Y45.514 I0.109 J1.911
G1 X37.068 Y45.822
G2 X36.783 Y45.911 I0.424 J1.867
G1 X36.126 Y46.172
X36.495 Y45.851
X37.779 Y45.02
X39.084 Y44.514
X40.516 Y44.266
X42.139 Y44.269
X43.986 Y44.527
X45.96 Y45.012
X47.652 Y45.782
X49.332 Y46.779
X49.97 Y47.234
X50.01 Y47.268
X49.352 Y48.126
X48.63 Y48.954
X48.519 Y48.869
X48.484 Y48.843
X47.007 Y47.761
X46.927 Y47.705
X46.843 Y47.653
X46.799 Y47.627
X46.773 Y47.621
X46.748 Y47.63
X46.723 Y47.64
X46.697 Y47.633
X45.366 Y46.854
X45.267 Y46.799
X45.165 Y46.751
X43.741 Y46.135
G2 X43.494 Y46.049 I-0.738 J1.705
G1 X42.092 Y45.664
G2 X41.805 Y45.61 I-0.491 J1.791
G1 X40.422 Y45.457
G2 X40.112 Y45.449 I-0.204 J1.846
G1 X38.743 Y45.527
G2 X38.438 Y45.57 I0.106 J1.854
G1 X37.08 Y45.878
G2 X36.804 Y45.964 I0.411 J1.811
G1 X35.845 Y46.345
X35.871 Y46.318
X36.461 Y45.806
X37.753 Y44.969
X39.068 Y44.458
X40.511 Y44.209
X42.143 Y44.212
X43.996 Y44.472
X45.979 Y44.958
X47.678 Y45.732
X49.363 Y46.731
X50.005 Y47.189
X50.088 Y47.259
X49.397 Y48.162
X48.638 Y49.032
X48.484 Y48.914
X48.45 Y48.889
X46.973 Y47.807
X46.895 Y47.752
X46.815 Y47.702
X46.697 Y47.633
X46.679 Y47.627
X46.661 Y47.628
X46.644 Y47.636
X46.627 Y47.644
X46.608 Y47.646
X46.591 Y47.639
X45.336 Y46.904
X45.24 Y46.852
X45.142 Y46.806
X43.718 Y46.189
G2 X43.479 Y46.105 I-0.714 J1.651
G1 X42.077 Y45.721
G2 X41.799 Y45.668 I-0.475 J1.735
G1 X40.415 Y45.516
G2 X40.116 Y45.508 I-0.197 J1.788
G1 X38.747 Y45.586
G2 X38.451 Y45.627 I0.102 J1.796
G1 X37.093 Y45.935
G2 X36.826 Y46.018 I0.398 J1.754
G1 X35.611 Y46.502
X35.831 Y46.275
X36.425 Y45.759
X37.726 Y44.917
X39.052 Y44.401
X40.506 Y44.15
X42.147 Y44.153
X44.008 Y44.414
X45.998 Y44.902
X47.705 Y45.679
X49.395 Y46.682
X50.041 Y47.142
X50.163 Y47.245
X50.146 Y47.28
X49.442 Y48.2
X48.646 Y49.113
X48.448 Y48.961
X48.415 Y48.936
X46.939 Y47.854
X46.863 Y47.802
X46.785 Y47.753
X46.591 Y47.639
X46.573 Y47.633
X46.555 Y47.634
X46.538 Y47.642
X46.521 Y47.651
X46.502 Y47.652
X46.485 Y47.646
X45.307 Y46.955
X45.214 Y46.905
X45.118 Y46.86
X43.695 Y46.244
X43.58 Y46.199
X43.463 Y46.162
X42.061 Y45.778
G2 X41.792 Y45.727 I-0.46 J1.678
G1 X40.409 Y45.574
G2 X40.119 Y45.566 I-0.191 J1.729
G1 X38.75 Y45.644
G2 X38.464 Y45.685 I0.099 J1.737
G1 X37.106 Y45.993
G2 X36.847 Y46.073 I0.385 J1.696
G1 X35.498 Y46.611
X35.366 Y46.669
X35.79 Y46.232
X36.39 Y45.711
X37.699 Y44.864
X39.037 Y44.344
X40.501 Y44.091
X42.151 Y44.094
X44.019 Y44.356
X46.018 Y44.846
X47.733 Y45.627
X49.427 Y46.632
X50.077 Y47.096
X50.236 Y47.23
X50.197 Y47.311
X49.488 Y48.237
X48.654 Y49.193
X48.412 Y49.008
X48.38 Y48.984
X46.904 Y47.902
X46.831 Y47.851
X46.755 Y47.804
X46.485 Y47.646
X46.459 Y47.639
X46.434 Y47.649
X46.409 Y47.658
X46.383 Y47.651
X45.278 Y47.004
X45.188 Y46.955
X45.096 Y46.912
X43.672 Y46.296
X43.562 Y46.252
X43.448 Y46.217
X42.046 Y45.833
G2 X41.786 Y45.783 I-0.445 J1.623
G1 X40.402 Y45.63
G2 X40.122 Y45.623 I-0.185 J1.673
G1 X38.753 Y45.701
G2 X38.476 Y45.74 I0.096 J1.68
G1 X37.119 Y46.048
G2 X36.868 Y46.126 I0.372 J1.641
G1 X35.519 Y46.663
G2 X35.18 Y46.845 I0.623 J1.563
G1 X35.03 Y46.95
X35.117 Y46.845
X35.751 Y46.191
X36.355 Y45.666
X37.673 Y44.813
X39.021 Y44.289
X40.496 Y44.034
X42.155 Y44.038
X44.029 Y44.3
X46.036 Y44.793
X47.759 Y45.577
X49.458 Y46.585
X50.112 Y47.051
X50.307 Y47.215
X50.245 Y47.341
X49.532 Y48.273
X48.661 Y49.271
X48.378 Y49.052
X48.347 Y49.029
X46.87 Y47.947
X46.8 Y47.898
X46.726 Y47.853
X46.383 Y47.651
X46.357 Y47.645
X46.333 Y47.654
X46.309 Y47.663
X46.283 Y47.657
X45.25 Y47.052
X45.163 Y47.004
X45.074 Y46.962
X43.65 Y46.346
X43.543 Y46.304
X43.434 Y46.27
X42.032 Y45.886
G2 X41.78 Y45.838 I-0.43 J1.57
G1 X40.396 Y45.685
G2 X40.125 Y45.678 I-0.179 J1.618
G1 X38.756 Y45.756
G2 X38.489 Y45.794 I0.092 J1.625
G1 X37.131 Y46.102
G2 X36.889 Y46.177 I0.36 J1.587
G1 X35.539 Y46.715
G2 X35.212 Y46.891 I0.602 J1.512
G1 X34.726 Y47.229
X35.076 Y46.808
X35.713 Y46.151
X36.322 Y45.622
X37.648 Y44.764
X39.006 Y44.236
X40.491 Y43.979
X42.159 Y43.982
X44.04 Y44.246
X46.055 Y44.74
X47.785 Y45.528
X49.488 Y46.538
X50.146 Y47.007
X50.375 Y47.2
X50.292 Y47.37
X49.575 Y48.308
X48.682 Y49.331
X48.669 Y49.346
X48.344 Y49.096
X48.314 Y49.074
X46.838 Y47.992
X46.769 Y47.944
X46.698 Y47.901
X46.283 Y47.657
X46.258 Y47.651
X46.234 Y47.66
X46.209 Y47.669
X46.184 Y47.663
X45.222 Y47.1
X45.138 Y47.054
X45.052 Y47.013
X43.628 Y46.397
X43.525 Y46.357
X43.419 Y46.324
X42.017 Y45.939
X41.897 Y45.911
X41.774 Y45.893
X40.39 Y45.74
G2 X40.129 Y45.733 I-0.172 J1.563
G1 X38.759 Y45.811
G2 X38.501 Y45.848 I0.089 J1.57
G1 X37.143 Y46.156
X37.025 Y46.187
X36.909 Y46.228
X35.56 Y46.766
G2 X35.243 Y46.936 I0.582 J1.461
G1 X34.422 Y47.508
X35.035 Y46.771
X35.675 Y46.111
X36.289 Y45.577
X37.623 Y44.714
X38.992 Y44.182
X40.487 Y43.924
X42.163 Y43.927
X44.05 Y44.191
X46.073 Y44.688
X47.81 Y45.478
X49.519 Y46.492
X50.179 Y46.964
X50.444 Y47.186
X50.34 Y47.399
X49.617 Y48.343
X48.724 Y49.368
X48.678 Y49.423
X48.31 Y49.14
X48.282 Y49.119
X46.805 Y48.037
X46.739 Y47.991
X46.671 Y47.948
X46.184 Y47.663
X46.158 Y47.657
X46.134 Y47.666
X46.109 Y47.675
X46.084 Y47.669
X45.194 Y47.147
X45.113 Y47.103
X45.03 Y47.064
X43.606 Y46.448
X43.507 Y46.409
X43.404 Y46.377
X42.002 Y45.993
X41.886 Y45.966
X41.768 Y45.948
X40.384 Y45.796
G2 X40.132 Y45.789 I-0.166 J1.508
G1 X38.763 Y45.867
G2 X38.513 Y45.902 I0.086 J1.514
G1 X37.156 Y46.21
X37.041 Y46.241
X36.93 Y46.28
X35.58 Y46.817
G2 X35.275 Y46.982 I0.561 J1.409
G1 X34.179 Y47.745
X34.352 Y47.505
X34.994 Y46.734
X35.637 Y46.071
X36.255 Y45.533
X37.597 Y44.664
X38.977 Y44.129
X40.482 Y43.868
X42.167 Y43.872
X44.061 Y44.137
X46.091 Y44.635
X47.836 Y45.429
X49.549 Y46.445
X50.213 Y46.92
X50.513 Y47.171
X50.387 Y47.429
X49.66 Y48.378
X48.765 Y49.404
X48.703 Y49.481
X48.688 Y49.5
X48.276 Y49.184
X48.249 Y49.163
X46.772 Y48.081
X46.642 Y47.996
X46.084 Y47.669
X46.058 Y47.663
X46.033 Y47.672
X46.007 Y47.681
X45.981 Y47.675
X45.165 Y47.197
X45.087 Y47.154
X45.007 Y47.116
X43.584 Y46.5
X43.488 Y46.463
X43.389 Y46.432
X41.987 Y46.048
X41.875 Y46.022
X41.762 Y46.005
X40.378 Y45.852
X40.257 Y45.844
X40.135 Y45.846
X38.766 Y45.924
X38.645 Y45.935
X38.526 Y45.957
X37.168 Y46.265
X37.058 Y46.295
X36.951 Y46.333
X35.601 Y46.87
G2 X35.308 Y47.028 I0.54 J1.356
G1 X33.936 Y47.983
X34.307 Y47.47
X34.951 Y46.696
X35.598 Y46.029
X36.221 Y45.487
X37.571 Y44.614
X38.961 Y44.073
X40.477 Y43.811
X42.171 Y43.815
X44.072 Y44.081
X46.11 Y44.581
X47.862 Y45.379
X49.58 Y46.398
X50.248 Y46.875
X50.583 Y47.156
X50.436 Y47.459
X49.704 Y48.414
X48.808 Y49.442
X48.748 Y49.515
X48.698 Y49.58
X48.242 Y49.229
X48.215 Y49.209
X46.738 Y48.127
X46.614 Y48.045
X45.981 Y47.675
X45.955 Y47.668
X45.93 Y47.678
X45.905 Y47.687
X45.879 Y47.681
X45.136 Y47.246
X45.062 Y47.205
X44.984 Y47.169
X43.561 Y46.552
X43.469 Y46.516
X43.374 Y46.487
X41.972 Y46.103
X41.865 Y46.078
X41.756 Y46.061
X40.372 Y45.909
X40.255 Y45.901
X40.138 Y45.903
X38.769 Y45.98
X38.653 Y45.992
X38.538 Y46.013
X37.181 Y46.321
X37.075 Y46.349
X36.972 Y46.386
X35.622 Y46.923
G2 X35.34 Y47.075 I0.519 J1.303
G1 X33.878 Y48.093
X33.811 Y48.142
X33.747 Y48.196
X33.654 Y48.279
X33.659 Y48.27
X34.262 Y47.435
X34.909 Y46.658
X35.559 Y45.988
X36.187 Y45.442
X37.545 Y44.563
X38.946 Y44.018
X40.472 Y43.754
X42.175 Y43.758
X44.082 Y44.025
X46.129 Y44.527
X47.889 Y45.328
X49.611 Y46.35
X50.283 Y46.83
X50.654 Y47.141
X50.484 Y47.489
X49.749 Y48.45
X48.851 Y49.479
X48.793 Y49.55
X48.709 Y49.66
X48.207 Y49.274
X48.181 Y49.255
X46.705 Y48.173
X46.585 Y48.094
X45.879 Y47.681
X45.862 Y47.675
X45.843 Y47.676
X45.827 Y47.684
X45.81 Y47.692
X45.792 Y47.693
X45.775 Y47.687
X45.107 Y47.296
X45.035 Y47.256
X44.961 Y47.222
X43.538 Y46.606
X43.45 Y46.571
X43.359 Y46.543
X41.957 Y46.159
X41.854 Y46.135
X41.749 Y46.119
X40.365 Y45.966
X40.254 Y45.959
X40.141 Y45.96
X38.772 Y46.038
X38.661 Y46.049
X38.551 Y46.069
X37.194 Y46.377
X37.092 Y46.404
X36.993 Y46.439
X35.644 Y46.977
G2 X35.373 Y47.123 I0.498 J1.25
G1 X33.911 Y48.14
X33.847 Y48.188
X33.786 Y48.239
X33.464 Y48.525
X33.609 Y48.239
X34.217 Y47.399
X34.866 Y46.619
X35.519 Y45.946
X36.152 Y45.395
X37.519 Y44.511
X38.93 Y43.962
X40.467 Y43.697
X42.179 Y43.7
X44.093 Y43.968
X46.148 Y44.472
X47.915 Y45.277
X49.643 Y46.301
X50.319 Y46.784
X50.726 Y47.126
X50.534 Y47.52
X49.793 Y48.487
X48.895 Y49.517
X48.839 Y49.585
X48.72 Y49.741
X48.172 Y49.32
X48.147 Y49.302
X46.671 Y48.22
X46.556 Y48.144
X45.775 Y47.687
X45.758 Y47.681
X45.739 Y47.682
X45.723 Y47.69
X45.706 Y47.698
X45.688 Y47.699
X45.671 Y47.693
X45.078 Y47.345
X45.009 Y47.308
X44.939 Y47.275
X43.515 Y46.659
X43.43 Y46.625
X43.344 Y46.598
X41.942 Y46.214
X41.843 Y46.191
X41.743 Y46.176
X40.359 Y46.024
X40.252 Y46.016
X40.145 Y46.018
X38.776 Y46.096
X38.669 Y46.106
X38.564 Y46.126
X37.206 Y46.434
X37.109 Y46.46
X37.015 Y46.493
X35.665 Y47.031
G2 X35.406 Y47.17 I0.476 J1.196
G1 X33.944 Y48.188
X33.883 Y48.233
X33.824 Y48.282
X33.274 Y48.771
X33.56 Y48.209
X34.171 Y47.364
X34.823 Y46.58
X35.479 Y45.904
X36.117 Y45.349
X37.492 Y44.459
X38.915 Y43.906
X40.462 Y43.639
X42.183 Y43.642
X44.104 Y43.911
X46.167 Y44.417
X47.942 Y45.225
X49.674 Y46.253
X50.354 Y46.738
X50.797 Y47.111
X50.583 Y47.55
X49.838 Y48.523
X48.938 Y49.555
X48.885 Y49.62
X48.731 Y49.823
X48.137 Y49.366
X48.113 Y49.348
X46.636 Y48.266
X46.526 Y48.194
X45.671 Y47.693
X45.654 Y47.687
X45.635 Y47.688
X45.619 Y47.696
X45.602 Y47.704
X45.584 Y47.705
X45.567 Y47.699
X45.049 Y47.395
X44.983 Y47.359
X44.916 Y47.328
X43.492 Y46.712
X43.411 Y46.68
X43.329 Y46.654
X41.927 Y46.27
X41.832 Y46.248
X41.737 Y46.234
X40.353 Y46.081
X40.251 Y46.074
X40.148 Y46.076
X38.779 Y46.154
X38.677 Y46.164
X38.577 Y46.182
X37.219 Y46.49
X37.127 Y46.515
X37.036 Y46.547
X35.687 Y47.084
G2 X35.439 Y47.217 I0.455 J1.142
G1 X33.977 Y48.235
X33.919 Y48.278
X33.863 Y48.325
X33.114 Y48.991
X33.169 Y48.851
X33.51 Y48.179
X34.125 Y47.329
X34.78 Y46.542
X35.439 Y45.862
X36.082 Y45.303
X37.466 Y44.407
X38.899 Y43.85
X40.458 Y43.581
X42.187 Y43.584
X44.115 Y43.854
X46.186 Y44.362
X47.969 Y45.174
X49.706 Y46.205
X50.39 Y46.692
X50.869 Y47.096
X50.633 Y47.581
X49.883 Y48.56
X48.982 Y49.593
X48.931 Y49.655
X48.743 Y49.902
X48.705 Y49.876
X48.101 Y49.412
X48.079 Y49.395
X46.602 Y48.313
X46.497 Y48.244
X45.567 Y47.699
X45.549 Y47.693
X45.53 Y47.694
X45.513 Y47.702
X45.496 Y47.71
X45.477 Y47.711
X45.459 Y47.705
X45.018 Y47.447
X44.956 Y47.413
X44.892 Y47.383
X43.468 Y46.767
X43.391 Y46.737
X43.313 Y46.712
X41.911 Y46.328
X41.821 Y46.307
X41.73 Y46.294
X40.346 Y46.141
X40.249 Y46.134
X40.151 Y46.136
X38.782 Y46.214
X38.686 Y46.223
X38.59 Y46.241
X37.232 Y46.549
X37.144 Y46.572
X37.058 Y46.603
X35.709 Y47.14
G2 X35.474 Y47.267 I0.433 J1.086
G1 X34.012 Y48.284
X33.956 Y48.326
X33.903 Y48.37
X32.966 Y49.203
X33.114 Y48.826
X33.459 Y48.148
X34.078 Y47.292
X34.735 Y46.501
X35.398 Y45.818
X36.046 Y45.255
X37.438 Y44.354
X38.883 Y43.792
X40.452 Y43.521
X42.191 Y43.524
X44.126 Y43.795
X46.206 Y44.305
X47.997 Y45.121
X49.739 Y46.154
X50.427 Y46.645
X50.932 Y47.07
X50.943 Y47.082
X50.684 Y47.612
X49.929 Y48.598
X49.027 Y49.632
X48.979 Y49.692
X48.756 Y49.984
X48.67 Y49.925
X48.065 Y49.46
X48.043 Y49.444
X46.567 Y48.362
X46.467 Y48.296
X45.459 Y47.705
X45.441 Y47.699
X45.422 Y47.7
X45.405 Y47.708
X45.387 Y47.717
X45.369 Y47.718
X45.351 Y47.711
X44.988 Y47.499
X44.929 Y47.467
X44.868 Y47.438
X43.444 Y46.822
X43.371 Y46.793
X43.297 Y46.77
X41.895 Y46.386
X41.81 Y46.366
X41.723 Y46.353
X40.34 Y46.201
X40.247 Y46.194
X40.155 Y46.196
X38.786 Y46.274
X38.694 Y46.283
X38.603 Y46.299
X37.246 Y46.607
X37.162 Y46.63
X37.081 Y46.658
X35.731 Y47.196
G2 X35.508 Y47.316 I0.41 J1.031
G1 X34.046 Y48.334
X33.942 Y48.415
X32.818 Y49.415
X33.059 Y48.802
X33.407 Y48.116
X34.03 Y47.255
X34.69 Y46.461
X35.357 Y45.774
X36.01 Y45.207
X37.411 Y44.3
X38.867 Y43.734
X40.447 Y43.461
X42.195 Y43.464
X44.138 Y43.736
X46.225 Y44.248
X48.025 Y45.067
X49.772 Y46.104
X50.463 Y46.597
X50.974 Y47.027
X51.014 Y47.072
X50.736 Y47.644
X49.976 Y48.636
X49.072 Y49.672
X49.027 Y49.728
X48.769 Y50.066
X48.635 Y49.973
X48.028 Y49.507
X48.008 Y49.492
X46.531 Y48.41
X46.436 Y48.348
X45.351 Y47.711
X45.333 Y47.705
X45.314 Y47.706
X45.296 Y47.715
X45.279 Y47.723
X45.26 Y47.724
X45.242 Y47.718
X44.958 Y47.551
X44.844 Y47.493
X43.42 Y46.877
X43.352 Y46.85
X43.281 Y46.828
X41.879 Y46.444
X41.798 Y46.425
X41.717 Y46.413
X40.333 Y46.26
X40.246 Y46.254
X40.158 Y46.256
X38.789 Y46.334
X38.702 Y46.342
X38.617 Y46.358
X37.259 Y46.666
X37.18 Y46.687
X37.103 Y46.714
X35.753 Y47.252
X35.645 Y47.303
X35.542 Y47.365
X34.08 Y48.383
X33.982 Y48.46
X32.677 Y49.621
X32.687 Y49.584
X33.004 Y48.777
X33.356 Y48.085
X33.983 Y47.218
X34.646 Y46.421
X35.315 Y45.731
X35.973 Y45.158
X37.384 Y44.246
X38.851 Y43.676
X40.442 Y43.401
X42.2 Y43.404
X44.149 Y43.677
X46.245 Y44.191
X48.053 Y45.014
X49.805 Y46.053
X50.5 Y46.55
X51.016 Y46.984
X51.086 Y47.062
X50.787 Y47.676
X50.023 Y48.674
X49.118 Y49.711
X49.074 Y49.765
X48.782 Y50.148
X48.599 Y50.022
X47.992 Y49.555
X47.972 Y49.54
X46.496 Y48.458
X46.406 Y48.399
X45.242 Y47.718
X45.224 Y47.711
X45.204 Y47.712
X45.186 Y47.721
X45.168 Y47.73
X45.148 Y47.731
X45.13 Y47.724
X44.926 Y47.605
X44.819 Y47.551
X43.396 Y46.935
X43.331 Y46.909
X43.264 Y46.888
X41.862 Y46.504
X41.787 Y46.487
X41.71 Y46.475
X40.326 Y46.323
X40.244 Y46.317
X40.162 Y46.318
X38.793 Y46.396
X38.711 Y46.404
X38.631 Y46.419
X37.273 Y46.727
X37.199 Y46.747
X37.126 Y46.773
X35.777 Y47.31
X35.674 Y47.358
X35.578 Y47.417
X34.116 Y48.434
X34.024 Y48.507
X32.689 Y49.694
X32.64 Y49.741
X32.594 Y49.792
X32.552 Y49.84
X32.627 Y49.565
X32.947 Y48.751
X33.302 Y48.052
X33.933 Y47.18
X34.599 Y46.379
X35.272 Y45.685
X35.936 Y45.108
X37.355 Y44.19
X38.834 Y43.615
X40.437 Y43.338
X42.204 Y43.341
X44.161 Y43.615
X46.266 Y44.132
X48.082 Y44.959
X49.839 Y46.001
X50.539 Y46.5
X51.06 Y46.939
X51.161 Y47.051
X50.84 Y47.709
X50.071 Y48.714
X49.165 Y49.753
X49.124 Y49.803
X48.795 Y50.234
X48.562 Y50.072
X47.953 Y49.605
X47.935 Y49.591
X46.459 Y48.509
X46.374 Y48.454
X45.13 Y47.724
X45.112 Y47.718
X45.093 Y47.719
X45.076 Y47.727
X45.059 Y47.735
X45.041 Y47.737
X45.023 Y47.73
X44.896 Y47.656
X44.795 Y47.605
X43.372 Y46.989
X43.311 Y46.965
X43.249 Y46.946
X41.847 Y46.562
X41.776 Y46.545
X41.703 Y46.534
X40.32 Y46.382
X40.242 Y46.376
X40.165 Y46.377
X38.796 Y46.455
X38.719 Y46.463
X38.644 Y46.477
X37.286 Y46.785
X37.216 Y46.804
X37.148 Y46.828
X35.799 Y47.365
X35.702 Y47.41
X35.612 Y47.466
X34.15 Y48.483
X34.063 Y48.551
X32.728 Y49.739
X32.682 Y49.783
X32.639 Y49.83
X32.426 Y50.08
X32.571 Y49.546
X32.893 Y48.727
X33.251 Y48.021
X33.886 Y47.143
X34.555 Y46.339
X35.231 Y45.642
X35.9 Y45.061
X37.328 Y44.137
X38.818 Y43.558
X40.432 Y43.279
X42.208 Y43.282
X44.172 Y43.557
X46.285 Y44.076
X48.109 Y44.906
X49.871 Y45.951
X50.575 Y46.453
X51.101 Y46.896
X51.232 Y47.041
X50.891 Y47.74
X50.117 Y48.751
X49.21 Y49.792
X49.171 Y49.839
X48.808 Y50.315
X48.527 Y50.12
X47.917 Y49.652
X47.9 Y49.639
X46.424 Y48.557
X46.344 Y48.505
X45.023 Y47.73
X45.005 Y47.724
X44.986 Y47.725
X44.969 Y47.734
X44.952 Y47.742
X44.934 Y47.743
X44.916 Y47.737
X44.866 Y47.707
X44.772 Y47.66
X43.348 Y47.044
X43.291 Y47.021
X43.233 Y47.003
X41.831 Y46.619
X41.764 Y46.603
X41.697 Y46.593
X40.313 Y46.441
X40.241 Y46.436
X40.169 Y46.437
X38.8 Y46.515
X38.728 Y46.522
X38.657 Y46.535
X37.299 Y46.843
X37.234 Y46.86
X37.17 Y46.883
X35.82 Y47.42
X35.73 Y47.462
X35.646 Y47.514
X34.184 Y48.532
X34.103 Y48.596
X32.768 Y49.783
X32.724 Y49.824
X32.684 Y49.869
X32.299 Y50.321
X32.514 Y49.527
X32.839 Y48.703
X33.2 Y47.99
X33.839 Y47.107
X34.511 Y46.3
X35.19 Y45.599
X35.864 Y45.013
X37.3 Y44.084
X38.802 Y43.5
X40.427 Y43.219
X42.213 Y43.223
X44.183 Y43.498
X46.305 Y44.019
X48.137 Y44.853
X49.904 Y45.901
X50.611 Y46.406
X51.142 Y46.853
X51.303 Y47.031
X50.942 Y47.772
X50.163 Y48.789
X49.254 Y49.831
X49.219 Y49.875
X48.821 Y50.396
X48.492 Y50.168
X47.881 Y49.699
X47.865 Y49.687
X46.389 Y48.605
X46.314 Y48.556
X44.916 Y47.737
X44.898 Y47.73
X44.879 Y47.731
X44.862 Y47.739
X44.836 Y47.749
X44.809 Y47.743
X44.748 Y47.714
X43.325 Y47.098
X43.272 Y47.077
X43.217 Y47.06
X41.815 Y46.676
X41.753 Y46.662
X41.69 Y46.652
X40.307 Y46.5
X40.239 Y46.495
X40.172 Y46.496
X38.803 Y46.574
X38.736 Y46.581
X38.67 Y46.593
X37.312 Y46.901
X37.251 Y46.917
X37.192 Y46.938
X35.842 Y47.476
X35.759 Y47.515
X35.68 Y47.563
X34.218 Y48.581
X34.142 Y48.64
X32.807 Y49.827
X32.729 Y49.907
X32.172 Y50.561
X32.458 Y49.508
X32.785 Y48.678
X33.15 Y47.959
X33.792 Y47.07
X34.466 Y46.26
X35.149 Y45.556
X35.828 Y44.966
X37.273 Y44.03
X38.786 Y43.443
X40.422 Y43.16
X42.217 Y43.163
X44.195 Y43.44
X46.324 Y43.963
X48.164 Y44.8
X49.936 Y45.851
X50.648 Y46.359
X51.184 Y46.81
X51.374 Y47.021
X50.993 Y47.803
X50.209 Y48.827
X49.299 Y49.87
X49.266 Y49.911
X48.834 Y50.477
X48.457 Y50.216
X47.845 Y49.746
X47.83 Y49.735
X46.353 Y48.653
X46.284 Y48.607
X44.836 Y47.759
X44.809 Y47.743
X44.79 Y47.738
X44.771 Y47.74
X44.754 Y47.75
X44.738 Y47.759
X44.719 Y47.762
X44.7 Y47.758
X43.301 Y47.153
X43.202 Y47.118
X41.8 Y46.733
X41.742 Y46.72
X41.684 Y46.711
X40.3 Y46.559
X40.238 Y46.554
X40.175 Y46.555
X38.806 Y46.633
X38.744 Y46.639
X38.683 Y46.651
X37.325 Y46.959
X37.269 Y46.974
X37.214 Y46.993
X35.864 Y47.531
X35.787 Y47.567
X35.714 Y47.612
X34.252 Y48.629
X34.182 Y48.684
X32.847 Y49.872
X32.774 Y49.946
X32.045 Y50.802
X32.401 Y49.49
X32.73 Y48.654
X33.099 Y47.928
X33.745 Y47.034
X34.422 Y46.22
X35.109 Y45.513
X35.793 Y44.918
X37.246 Y43.977
X38.77 Y43.385
X40.417 Y43.1
X42.221 Y43.104
X44.206 Y43.382
X46.344 Y43.906
X48.192 Y44.748
X49.969 Y45.802
X50.684 Y46.312
X51.225 Y46.767
X51.445 Y47.011
X51.044 Y47.834
X50.255 Y48.864
X49.344 Y49.909
X49.313 Y49.947
X48.847 Y50.558
X48.422 Y50.265
X47.809 Y49.793
X47.795 Y49.783
X46.318 Y48.701
X46.254 Y48.659
X44.806 Y47.81
X44.725 Y47.769
X44.7 Y47.758
X44.682 Y47.754
X44.663 Y47.757
X44.647 Y47.768
X44.631 Y47.778
X44.613 Y47.781
X44.595 Y47.777
X43.278 Y47.207
X43.186 Y47.175
X41.784 Y46.791
X41.731 Y46.779
X41.677 Y46.77
X40.294 Y46.618
X40.236 Y46.614
X40.179 Y46.615
X38.81 Y46.693
X38.753 Y46.698
X38.696 Y46.709
X37.339 Y47.017
X37.287 Y47.03
X37.236 Y47.048
X35.886 Y47.586
X35.815 Y47.619
X35.748 Y47.661
X34.286 Y48.678
X34.221 Y48.729
X32.886 Y49.916
X32.82 Y49.984
X31.918 Y51.042
X32.345 Y49.471
X32.676 Y48.63
X33.048 Y47.897
X33.698 Y46.997
X34.378 Y46.18
X35.068 Y45.469
X35.757 Y44.87
X37.219 Y43.924
X38.754 Y43.328
X40.412 Y43.041
X42.225 Y43.045
X44.217 Y43.323
X46.363 Y43.85
X48.219 Y44.695
X50.001 Y45.752
X50.721 Y46.265
X51.266 Y46.724
X51.516 Y47.001
X51.094 Y47.866
X50.301 Y48.902
X49.389 Y49.948
X49.36 Y49.983
X48.859 Y50.639
X48.387 Y50.313
X47.772 Y49.84
X47.76 Y49.831
X46.283 Y48.749
X46.224 Y48.71
X44.776 Y47.861
X44.701 Y47.823
X44.595 Y47.777
X44.576 Y47.773
X44.558 Y47.776
X44.542 Y47.787
X44.526 Y47.797
X44.508 Y47.8
X44.489 Y47.796
X43.254 Y47.262
X43.17 Y47.232
X41.768 Y46.848
X41.671 Y46.829
X40.287 Y46.677
X40.235 Y46.673
X40.182 Y46.674
X38.813 Y46.752
X38.761 Y46.757
X38.709 Y46.766
X37.352 Y47.074
X37.258 Y47.104
X35.908 Y47.641
X35.843 Y47.672
X35.782 Y47.709
X34.32 Y48.727
X34.261 Y48.773
X32.926 Y49.961
X32.865 Y50.023
X31.798 Y51.275
X31.804 Y51.236
X32.288 Y49.452
X32.622 Y48.605
X32.997 Y47.866
X33.651 Y46.961
X34.334 Y46.141
X35.027 Y45.426
X35.721 Y44.823
X37.192 Y43.871
X38.738 Y43.27
X40.407 Y42.982
X42.229 Y42.985
X44.228 Y43.265
X46.383 Y43.794
X48.247 Y44.642
X50.034 Y45.702
X50.757 Y46.219
X51.308 Y46.681
X51.587 Y46.991
X51.145 Y47.897
X50.347 Y48.939
X49.434 Y49.987
X49.407 Y50.019
X48.874 Y50.718
X48.852 Y50.706
X48.352 Y50.361
X47.736 Y49.887
X47.725 Y49.878
X46.248 Y48.796
X46.194 Y48.761
X44.746 Y47.912
X44.678 Y47.878
X44.489 Y47.796
X44.47 Y47.792
X44.451 Y47.796
X44.434 Y47.806
X44.418 Y47.817
X44.398 Y47.82
X44.379 Y47.816
X43.229 Y47.319
X43.154 Y47.292
X41.752 Y46.908
X41.664 Y46.891
X40.28 Y46.739
X40.186 Y46.736
X38.817 Y46.814
X38.723 Y46.827
X37.365 Y47.135
X37.281 Y47.161
X35.931 Y47.699
X35.872 Y47.726
X35.817 Y47.76
X34.355 Y48.778
X34.302 Y48.82
X32.967 Y50.007
X32.912 Y50.063
X31.781 Y51.39
X31.751 Y51.429
X31.725 Y51.47
X31.7 Y51.511
X31.743 Y51.223
X32.229 Y49.433
X32.565 Y48.58
X32.944 Y47.833
X33.602 Y46.923
X34.287 Y46.099
X34.984 Y45.381
X35.683 Y44.773
X37.163 Y43.815
X38.721 Y43.21
X40.401 Y42.919
X42.234 Y42.923
X44.24 Y43.204
X46.404 Y43.735
X48.276 Y44.587
X50.068 Y45.65
X50.795 Y46.169
X51.351 Y46.637
X51.655 Y46.973
X51.659 Y46.984
X51.198 Y47.93
X50.395 Y48.979
X49.48 Y50.028
X49.457 Y50.056
X48.89 Y50.799
X48.818 Y50.758
X48.316 Y50.411
X47.698 Y49.936
X47.688 Y49.929
X46.211 Y48.847
X46.163 Y48.815
X44.714 Y47.966
X44.653 Y47.935
X44.379 Y47.816
X44.361 Y47.812
X44.343 Y47.816
X44.327 Y47.826
X44.312 Y47.836
X44.294 Y47.839
X44.276 Y47.835
X43.206 Y47.372
X43.138 Y47.348
X41.736 Y46.964
X41.658 Y46.949
X40.274 Y46.796
X40.189 Y46.794
X38.82 Y46.872
X38.736 Y46.884
X37.378 Y47.192
X37.302 Y47.215
X35.953 Y47.753
X35.9 Y47.778
X35.85 Y47.808
X34.388 Y48.826
X34.341 Y48.863
X33.006 Y50.05
X32.956 Y50.101
X31.825 Y51.428
X31.775 Y51.499
X31.599 Y51.797
X31.686 Y51.211
X32.174 Y49.414
X32.512 Y48.556
X32.894 Y47.803
X33.556 Y46.887
X34.244 Y46.06
X34.944 Y45.339
X35.648 Y44.726
X37.137 Y43.763
X38.706 Y43.154
X40.396 Y42.861
X42.238 Y42.865
X44.251 Y43.147
X46.423 Y43.68
X48.303 Y44.535
X50.099 Y45.601
X50.831 Y46.123
X51.391 Y46.595
X51.705 Y46.942
X51.723 Y46.986
X51.248 Y47.961
X50.44 Y49.016
X49.524 Y50.066
X49.503 Y50.092
X48.905 Y50.875
X48.787 Y50.808
X48.281 Y50.458
X47.663 Y49.982
X47.654 Y49.975
X46.177 Y48.893
X46.133 Y48.865
X44.685 Y48.016
X44.63 Y47.988
X44.276 Y47.835
X44.258 Y47.831
X44.24 Y47.834
X44.224 Y47.844
X44.209 Y47.854
X44.191 Y47.858
X44.173 Y47.854
X43.183 Y47.425
X43.123 Y47.404
X41.721 Y47.02
X41.651 Y47.007
X40.267 Y46.854
X40.192 Y46.852
X38.823 Y46.93
X38.749 Y46.94
X37.391 Y47.248
X37.324 Y47.269
X35.974 Y47.807
X35.928 Y47.829
X35.883 Y47.856
X34.422 Y48.873
X34.379 Y48.906
X33.044 Y50.094
X33.001 Y50.138
X31.87 Y51.466
X31.825 Y51.529
X31.512 Y52.057
X31.515 Y51.966
X31.629 Y51.199
X32.119 Y49.396
X32.459 Y48.532
X32.844 Y47.773
X33.51 Y46.851
X34.201 Y46.021
X34.904 Y45.297
X35.613 Y44.68
X37.11 Y43.711
X38.69 Y43.097
X40.392 Y42.803
X42.242 Y42.807
X44.262 Y43.089
X46.442 Y43.624
X48.33 Y44.484
X50.131 Y45.552
X50.867 Y46.077
X51.432 Y46.553
X51.754 Y46.91
X51.787 Y46.987
X51.298 Y47.991
X50.485 Y49.052
X49.568 Y50.104
X49.549 Y50.127
X48.921 Y50.951
X48.756 Y50.857
X48.247 Y50.505
X47.628 Y50.029
X47.619 Y50.022
X46.143 Y48.94
X46.104 Y48.915
X44.656 Y48.066
X44.607 Y48.041
X44.173 Y47.854
X44.154 Y47.85
X44.135 Y47.853
X44.119 Y47.863
X44.103 Y47.874
X44.084 Y47.877
X44.065 Y47.873
X43.159 Y47.481
X43.107 Y47.463
X41.705 Y47.079
X41.645 Y47.067
X40.261 Y46.915
X40.196 Y46.913
X38.827 Y46.991
X38.762 Y47
X37.405 Y47.308
X37.346 Y47.326
X35.997 Y47.863
X35.956 Y47.882
X35.918 Y47.906
X34.456 Y48.923
X34.42 Y48.952
X33.085 Y50.139
X33.047 Y50.178
X31.916 Y51.505
X31.877 Y51.56
X31.445 Y52.291
X31.454 Y51.96
X31.569 Y51.187
X32.061 Y49.377
X32.403 Y48.507
X32.792 Y47.741
X33.462 Y46.814
X34.156 Y45.981
X34.862 Y45.252
X35.577 Y44.631
X37.082 Y43.657
X38.674 Y43.038
X40.386 Y42.742
X42.246 Y42.746
X44.274 Y43.029
X46.462 Y43.567
X48.358 Y44.43
X50.164 Y45.501
X50.904 Y46.029
X51.474 Y46.509
X51.807 Y46.877
X51.854 Y46.989
X51.35 Y48.024
X50.533 Y49.091
X49.614 Y50.144
X49.598 Y50.164
X48.937 Y51.03
X48.724 Y50.908
X48.211 Y50.554
X47.59 Y50.077
X46.107 Y48.989
X46.073 Y48.968
X44.625 Y48.119
X44.582 Y48.097
X44.065 Y47.873
X44.046 Y47.869
X44.027 Y47.873
X44.011 Y47.883
X43.994 Y47.894
X43.975 Y47.897
X43.957 Y47.893
X43.135 Y47.537
X43.091 Y47.522
X41.689 Y47.138
X41.638 Y47.128
X40.254 Y46.975
X40.199 Y46.974
X38.83 Y47.052
X38.776 Y47.059
X37.418 Y47.367
X37.369 Y47.383
X36.02 Y47.92
X35.985 Y47.936
X35.953 Y47.956
X34.491 Y48.973
X34.46 Y48.998
X33.125 Y50.185
X33.093 Y50.217
X31.962 Y51.545
X31.93 Y51.591
X31.377 Y52.526
X31.393 Y51.955
X31.51 Y51.174
X32.003 Y49.358
X32.348 Y48.482
X32.74 Y47.709
X33.414 Y46.777
X34.11 Y45.94
X34.82 Y45.208
X35.54 Y44.582
X37.054 Y43.602
X38.657 Y42.979
X40.381 Y42.681
X42.251 Y42.685
X44.285 Y42.97
X46.482 Y43.509
X48.386 Y44.376
X50.198 Y45.45
X50.941 Y45.981
X51.517 Y46.465
X51.859 Y46.844
X51.921 Y46.991
X51.402 Y48.056
X50.58 Y49.13
X49.66 Y50.184
X49.646 Y50.201
X48.953 Y51.11
X48.691 Y50.96
X48.175 Y50.603
X47.553 Y50.125
X46.071 Y49.039
X46.042 Y49.02
X44.594 Y48.171
X44.558 Y48.153
X43.957 Y47.893
X43.937 Y47.889
X43.918 Y47.892
X43.901 Y47.903
X43.885 Y47.914
X43.865 Y47.917
X43.846 Y47.913
X43.11 Y47.595
X43.074 Y47.582
X41.672 Y47.198
X41.631 Y47.19
X40.247 Y47.037
X40.203 Y47.036
X38.834 Y47.114
X38.79 Y47.12
X37.432 Y47.428
X37.392 Y47.441
X36.043 Y47.978
X35.989 Y48.007
X34.527 Y49.025
X34.502 Y49.044
X33.167 Y50.232
X33.141 Y50.258
X32.01 Y51.585
X31.983 Y51.623
X31.344 Y52.705
X31.313 Y52.565
X31.331 Y51.949
X31.448 Y51.162
X31.944 Y49.338
X32.291 Y48.456
X32.686 Y47.676
X33.365 Y46.738
X34.064 Y45.898
X34.777 Y45.163
X35.502 Y44.532
X37.026 Y43.546
X38.641 Y42.919
X40.376 Y42.619
X42.255 Y42.622
X44.297 Y42.908
X46.502 Y43.45
X48.415 Y44.32
X50.232 Y45.398
X50.98 Y45.932
X51.56 Y46.42
X51.912 Y46.81
X51.989 Y46.993
X51.455 Y48.089
X50.628 Y49.169
X49.707 Y50.225
X49.696 Y50.239
X48.969 Y51.191
X48.658 Y51.013
X48.138 Y50.654
X47.515 Y50.175
X46.034 Y49.089
X46.011 Y49.074
X44.562 Y48.225
X44.533 Y48.211
X43.846 Y47.913
X43.825 Y47.909
X43.805 Y47.912
X43.787 Y47.924
X43.769 Y47.935
X43.748 Y47.939
X43.728 Y47.934
X43.084 Y47.656
X43.057 Y47.646
X41.655 Y47.262
X41.624 Y47.256
X40.24 Y47.103
X40.206
X38.837 Y47.18
X38.804 Y47.185
X37.447 Y47.493
X37.417 Y47.502
X36.067 Y48.04
X36.027 Y48.062
X34.565 Y49.079
X34.546 Y49.094
X33.211 Y50.281
X33.192 Y50.301
X32.061 Y51.628
X32.041 Y51.657
X31.314 Y52.885
X31.247 Y52.571
X31.265 Y51.944
X31.383 Y51.148
X31.88 Y49.317
X32.23 Y48.429
X32.629 Y47.642
X33.312 Y46.698
X34.014 Y45.854
X34.731 Y45.114
X35.462 Y44.479
X36.995 Y43.487
X38.623 Y42.854
X40.37 Y42.552
X42.26 Y42.556
X44.309 Y42.843
X46.524 Y43.386
X48.446 Y44.261
X50.268 Y45.342
X51.02 Y45.879
X51.606 Y46.372
X51.969 Y46.773
X52.062 Y46.995
X51.512 Y48.124
X50.68 Y49.211
X49.757 Y50.269
X49.749 Y50.279
X48.991 Y51.272
X48.97 Y51.268
X48.623 Y51.069
X48.099 Y50.707
X47.475 Y50.227
X45.994 Y49.143
X45.977 Y49.131
X44.529 Y48.283
X44.507 Y48.272
X43.728 Y47.934
X43.706 Y47.93
X43.685 Y47.934
X43.666 Y47.946
X43.648 Y47.957
X43.626 Y47.961
X43.605 Y47.957
X43.056 Y47.719
X43.038 Y47.713
X41.636 Y47.329
X41.616 Y47.325
X40.232 Y47.172
X40.21
X38.841 Y47.25
X38.82 Y47.253
X37.462 Y47.561
X37.442 Y47.567
X36.093 Y48.104
X36.066 Y48.119
X34.605 Y49.136
X34.592 Y49.146
X33.257 Y50.333
X33.244 Y50.346
X32.113 Y51.673
X32.1 Y51.692
X31.324 Y53.005
X31.259 Y52.957
X31.177 Y52.577
X31.195 Y51.937
X31.315 Y51.134
X31.814 Y49.295
X32.166 Y48.401
X32.57 Y47.605
X33.257 Y46.655
X33.963 Y45.807
X34.684 Y45.064
X35.42 Y44.423
X36.964 Y43.425
X38.604 Y42.787
X40.364 Y42.483
X42.265 Y42.487
X44.323 Y42.774
X46.547 Y43.321
X48.478 Y44.199
X50.306 Y45.284
X51.063 Y45.824
X51.655 Y46.322
X52.029 Y46.736
X52.138 Y46.997
X51.572 Y48.161
X50.733 Y49.255
X49.809 Y50.315
X49.02 Y51.348
X48.945 Y51.334
X48.585 Y51.128
X48.058 Y50.764
X47.432 Y50.282
X45.953 Y49.199
X45.942 Y49.191
X44.494 Y48.343
X44.479 Y48.335
X43.605 Y47.957
X43.579 Y47.951
X43.554 Y47.956
X43.532 Y47.97
X43.51 Y47.984
X43.485 Y47.988
X43.46 Y47.983
X43.024 Y47.794
X41.615 Y47.408
X40.223 Y47.254
X38.846 Y47.331
X37.48 Y47.64
X36.123 Y48.18
X36.113 Y48.186
X34.651 Y49.203
X33.311 Y50.394
X32.176 Y51.726
X31.349 Y53.123
X31.186 Y53.005
X31.095 Y52.585
X31.114 Y51.93
X31.235 Y51.117
X31.737 Y49.269
X32.092 Y48.367
X32.5 Y47.563
X33.193 Y46.605
X33.902 Y45.753
X34.628 Y45.005
X35.371 Y44.358
X36.926 Y43.352
X38.582 Y42.708
X40.357 Y42.401
X42.27 Y42.405
X44.338 Y42.694
X46.574 Y43.243
X48.516 Y44.127
X50.351 Y45.216
X51.113 Y45.76
X51.712 Y46.263
X52.098 Y46.691
X52.228 Y47
X51.641 Y48.204
X50.797 Y49.307
X49.871 Y50.368
X49.055 Y51.438
X48.917 Y51.411
X48.542 Y51.197
X48.01 Y50.829
X47.383 Y50.347
X45.905 Y49.264
X44.452 Y48.413
X43.46 Y47.983
X43.408 Y47.952 Z-2.488
X43.362 Y47.912 Z-2.476
X43.331 Y47.871 Z-2.441
X43.306 Y47.826 Z-2.407
X43.286 Y47.76 Z-2.304
X43.282 Y47.737 Z-2.183
Z5
X40.951 Y52.81
Z2.817 F200
X40.928 Y52.811 Z2.698 F333.3
X40.862 Y52.812 Z2.597
X40.763 Y52.809 Z2.527
X40.646 Y52.796 Z2.5
G3 X41.081 Y49.812 Z2.335 I0.218 J-1.492
X40.646 Y52.796 Z2.169 I-0.218 J1.492
X41.081 Y49.812 Z2.004 I0.218 J-1.492
X40.646 Y52.796 Z1.838 I-0.218 J1.492
X41.081 Y49.812 Z1.673 I0.218 J-1.492
X40.646 Y52.796 Z1.507 I-0.218 J1.492
X41.081 Y49.812 Z1.342 I0.218 J-1.492
X40.646 Y52.796 Z1.176 I-0.218 J1.492
X41.081 Y49.812 Z1.011 I0.218 J-1.492
X40.646 Y52.796 Z0.845 I-0.218 J1.492
X41.081 Y49.812 Z0.68 I0.218 J-1.492
X40.646 Y52.796 Z0.515 I-0.218 J1.492
X41.081 Y49.812 Z0.349 I0.218 J-1.492
X40.646 Y52.796 Z0.184 I-0.218 J1.492
X41.081 Y49.812 Z0.018 I0.218 J-1.492
X40.646 Y52.796 Z-0.147 I-0.218 J1.492
X41.081 Y49.812 Z-0.313 I0.218 J-1.492
X40.646 Y52.796 Z-0.478 I-0.218 J1.492
X41.081 Y49.812 Z-0.644 I0.218 J-1.492
X40.646 Y52.796 Z-0.809 I-0.218 J1.492
X41.081 Y49.812 Z-0.974 I0.218 J-1.492
X40.646 Y52.796 Z-1.14 I-0.218 J1.492
X41.081 Y49.812 Z-1.305 I0.218 J-1.492
X40.646 Y52.796 Z-1.471 I-0.218 J1.492
X41.081 Y49.812 Z-1.636 I0.218 J-1.492
X40.646 Y52.796 Z-1.802 I-0.218 J1.492
X41.081 Y49.812 Z-1.967 I0.218 J-1.492
X40.646 Y52.796 Z-2.133 I-0.218 J1.492
X41.081 Y49.812 Z-2.298 I0.218 J-1.492
X40.646 Y52.796 Z-2.464 I-0.218 J1.492
X39.743 Y52.314 Z-2.5 I0.218 J-1.492
G1 X39.473 Y52.015 F300
X39.597 Y51.922
X39.866 Y52.202
X39.954 Y52.301
X39.833 Y52.413
X39.743 Y52.314
X39.723 Y52.299
X39.698 Y52.292
X39.672 Y52.296
X39.646 Y52.3
X39.621 Y52.293
X39.601 Y52.278
X39.353 Y52.003
X39.605 Y51.813
X39.926 Y52.146
X40.069 Y52.306
X39.828 Y52.529
X39.601 Y52.278
X39.58 Y52.262
X39.555 Y52.256
X39.529 Y52.26
X39.504 Y52.263
X39.479 Y52.257
X39.458 Y52.242
X39.233 Y51.992
X39.614 Y51.705
X39.986 Y52.091
X40.183 Y52.312
X39.822 Y52.646
X39.458 Y52.242
X39.437 Y52.226
X39.412 Y52.22
X39.387 Y52.223
X39.361 Y52.227
X39.336 Y52.221
X39.315 Y52.205
X39.116 Y51.984
X39.147 Y51.954
X39.622 Y51.596
X40.046 Y52.035
X40.297 Y52.318
X39.817 Y52.762
X39.315 Y52.205
X39.294 Y52.19
X39.269 Y52.183
X39.243 Y52.187
X39.217 Y52.191
X39.191 Y52.184
X39.17 Y52.168
X39 Y51.98
X39.093 Y51.891
X39.631 Y51.486
X40.107 Y51.979
X40.413 Y52.323
X39.812 Y52.88
X39.17 Y52.168
X39.149 Y52.153
X39.124 Y52.146
X39.098 Y52.15
X39.072 Y52.154
X39.046 Y52.147
X39.025 Y52.132
X38.885 Y51.976
X39.039 Y51.827
X39.64 Y51.375
X40.168 Y51.922
X40.529 Y52.329
X39.806 Y52.998
X39.025 Y52.132
X39.004 Y52.116
X38.979 Y52.109
X38.953 Y52.113
X38.927 Y52.117
X38.901 Y52.11
X38.88 Y52.095
X38.769 Y51.972
X38.985 Y51.764
X39.649 Y51.265
X40.229 Y51.866
X40.645 Y52.335
X39.801 Y53.116
X38.88 Y52.095
X38.859 Y52.079
X38.834 Y52.073
X38.808 Y52.076
X38.782 Y52.08
X38.756 Y52.074
X38.735 Y52.058
X38.654 Y51.967
X38.931 Y51.701
X39.657 Y51.154
X40.29 Y51.81
X40.761 Y52.34
X39.796 Y53.234
X38.735 Y52.058
X38.714 Y52.042
X38.689 Y52.036
X38.663 Y52.039
X38.637 Y52.043
X38.611 Y52.037
X38.59 Y52.021
X38.538 Y51.963
X38.877 Y51.637
X39.666 Y51.044
X40.351 Y51.753
X40.877 Y52.346
X39.79 Y53.352
X38.59 Y52.021
X38.569 Y52.005
X38.544 Y51.999
X38.518 Y52.003
X38.492 Y52.006
X38.466 Y52
X38.445 Y51.984
X38.423 Y51.959
X38.823 Y51.574
X39.675 Y50.933
X40.412 Y51.697
X40.993 Y52.352
X39.785 Y53.47
X38.445 Y51.984
X38.419 Y51.966
X38.386 Y51.962
X38.367 Y51.958
X38.353 Y51.943
X38.35 Y51.923
X38.36 Y51.905
X38.769 Y51.511
X39.684 Y50.823
X40.473 Y51.641
X41.109 Y52.357
X39.78 Y53.588
X38.307 Y51.955
X38.36 Y51.905
X38.375 Y51.883
X38.38 Y51.857
X38.376 Y51.832
X38.371 Y51.806
X38.377 Y51.78
X38.392 Y51.759
X38.716 Y51.447
X39.692 Y50.712
X40.534 Y51.584
X41.225 Y52.363
X39.775 Y53.706
X38.192 Y51.951
X38.392 Y51.759
X38.407 Y51.737
X38.413 Y51.711
X38.408 Y51.685
X38.404 Y51.66
X38.409 Y51.634
X38.424 Y51.612
X38.662 Y51.384
X39.701 Y50.602
X40.595 Y51.528
X41.341 Y52.369
X39.769 Y53.824
X38.076 Y51.947
X38.424 Y51.612
X38.439 Y51.591
X38.445 Y51.565
X38.44 Y51.539
X38.436 Y51.513
X38.441 Y51.488
X38.456 Y51.466
X38.608 Y51.321
X39.697 Y50.501
X39.709 Y50.493
X40.656 Y51.471
X41.457 Y52.374
X39.764 Y53.942
X37.961 Y51.943
X38.456 Y51.466
X38.471 Y51.445
X38.477 Y51.419
X38.473 Y51.393
X38.468 Y51.367
X38.474 Y51.342
X38.489 Y51.32
X38.554 Y51.258
X39.648 Y50.434
X39.71 Y50.39
X39.77 Y50.435
X40.716 Y51.415
X41.573 Y52.38
X39.759 Y54.06
X37.845 Y51.939
X38.489 Y51.32
X38.503 Y51.299
X38.509 Y51.273
X38.504 Y51.248
X38.499 Y51.222
X38.506 Y51.197
X38.523 Y51.177
X39.599 Y50.367
X39.711 Y50.287
X39.825 Y50.372
X40.777 Y51.359
X41.689 Y52.386
X39.753 Y54.178
X37.73 Y51.935
X38.5 Y51.194
X38.523 Y51.177
X38.541 Y51.157
X38.549 Y51.132
X38.548 Y51.106
X38.546 Y51.08
X38.555 Y51.055
X38.573 Y51.036
X39.55 Y50.3
X39.713 Y50.185
X39.88 Y50.31
X40.838 Y51.302
X41.805 Y52.392
X39.748 Y54.296
X37.615 Y51.93
X38.446 Y51.131
X38.573 Y51.036
X38.59 Y51.016
X38.599 Y50.991
X38.597 Y50.965
X38.596 Y50.939
X38.605 Y50.914
X38.622 Y50.894
X39.501 Y50.233
X39.714 Y50.082
X39.935 Y50.247
X40.899 Y51.246
X41.91 Y52.384
X41.921 Y52.397
X39.743 Y54.414
X37.499 Y51.926
X38.392 Y51.068
X38.622 Y50.894
X38.64 Y50.875
X38.648 Y50.85
X38.647 Y50.824
X38.646 Y50.798
X38.654 Y50.773
X38.672 Y50.753
X39.452 Y50.166
X39.715 Y49.98
X39.99 Y50.185
X40.96 Y51.189
X41.972 Y52.329
X42.04 Y52.401
X39.737 Y54.532
X37.389 Y51.929
X37.421 Y51.886
X38.338 Y51.004
X38.672 Y50.753
X38.689 Y50.734
X38.698 Y50.709
X38.696 Y50.683
X38.695 Y50.657
X38.704 Y50.633
X38.721 Y50.613
X39.403 Y50.1
X39.716 Y49.878
X40.045 Y50.123
X41.021 Y51.134
X42.033 Y52.275
X42.105 Y52.349
X42.159 Y52.402
X39.732 Y54.649
X37.283 Y51.934
X37.359 Y51.832
X38.285 Y50.942
X38.721 Y50.613
X38.738 Y50.594
X38.747 Y50.569
X38.746 Y50.543
X38.744 Y50.517
X38.753 Y50.493
X38.77 Y50.473
X39.355 Y50.033
X39.717 Y49.776
X40.1 Y50.061
X41.081 Y51.078
X42.095 Y52.22
X42.162 Y52.29
X42.279 Y52.403
X39.727 Y54.766
X37.177 Y51.939
X37.297 Y51.777
X38.231 Y50.879
X38.77 Y50.473
X38.787 Y50.454
X38.796 Y50.429
X38.795 Y50.403
X38.793 Y50.377
X38.802 Y50.353
X38.819 Y50.333
X39.306 Y49.967
X39.719 Y49.674
X40.154 Y49.999
X41.141 Y51.022
X42.156 Y52.165
X42.219 Y52.231
X42.399 Y52.405
X39.721 Y54.883
X37.071 Y51.944
X37.235 Y51.722
X38.178 Y50.816
X38.819 Y50.333
X38.837 Y50.314
X38.845 Y50.289
X38.844 Y50.263
X38.842 Y50.237
X38.851 Y50.213
X38.868 Y50.193
X39.258 Y49.9
X39.72 Y49.573
X40.209 Y49.937
X41.202 Y50.966
X42.218 Y52.111
X42.277 Y52.172
X42.518 Y52.406
X39.716 Y55
X36.964 Y51.949
X37.173 Y51.668
X38.124 Y50.753
X38.868 Y50.193
X38.886 Y50.174
X38.894 Y50.149
X38.893 Y50.123
X38.891 Y50.098
X38.9 Y50.073
X38.917 Y50.054
X39.209 Y49.834
X39.721 Y49.471
X40.263 Y49.875
X41.262 Y50.91
X42.279 Y52.056
X42.334 Y52.113
X42.638 Y52.407
X39.711 Y55.117
X36.858 Y51.954
X37.112 Y51.613
X38.071 Y50.691
X38.917 Y50.054
X38.935 Y50.034
X38.943 Y50.01
X38.942 Y49.984
X38.941 Y49.958
X38.949 Y49.933
X38.967 Y49.914
X39.161 Y49.768
X39.722 Y49.369
X40.318 Y49.813
X41.322 Y50.854
X42.341 Y52.002
X42.391 Y52.054
X42.758 Y52.409
X39.706 Y55.234
X36.752 Y51.959
X37.05 Y51.559
X38.017 Y50.628
X38.967 Y49.914
X38.984 Y49.894
X38.993 Y49.87
X38.991 Y49.844
X38.99 Y49.818
X38.998 Y49.793
X39.016 Y49.774
X39.112 Y49.701
X39.723 Y49.268
X40.372 Y49.751
X41.383 Y50.798
X42.402 Y51.947
X42.448 Y51.995
X42.877 Y52.41
X39.7 Y55.351
X36.646 Y51.965
X36.988 Y51.504
X37.964 Y50.565
X39.016 Y49.774
X39.033 Y49.754
X39.041 Y49.73
X39.04 Y49.704
X39.038 Y49.677
X39.047 Y49.653
X39.065 Y49.634
X39.724 Y49.166
X40.427 Y49.689
X41.443 Y50.742
X42.464 Y51.892
X42.505 Y51.936
X42.997 Y52.411
X39.695 Y55.468
X36.547 Y51.977
X36.581 Y51.913
X36.926 Y51.449
X37.911 Y50.502
X39.064 Y49.635
X39.065 Y49.634
X39.083 Y49.615
X39.092 Y49.591
X39.091 Y49.565
Y49.539
X39.1 Y49.514
X39.118 Y49.495
X39.726 Y49.064
X40.481 Y49.627
X41.504 Y50.686
X42.526 Y51.838
X42.563 Y51.877
X43.117 Y52.413
X39.69 Y55.585
X36.448 Y51.99
X36.511 Y51.869
X36.864 Y51.395
X37.857 Y50.44
X39.015 Y49.568
X39.118 Y49.495
X39.136 Y49.476
X39.145 Y49.452
X39.144 Y49.426
Y49.4
X39.153 Y49.376
X39.171 Y49.357
X39.727 Y48.963
X40.536 Y49.565
X41.564 Y50.631
X42.587 Y51.783
X42.62 Y51.817
X43.236 Y52.414
X39.685 Y55.702
X36.349 Y52.003
X36.441 Y51.825
X36.802 Y51.34
X37.804 Y50.377
X38.966 Y49.502
X39.171 Y49.357
X39.189 Y49.338
X39.198 Y49.314
Y49.288
X39.197 Y49.262
X39.206 Y49.237
X39.224 Y49.218
X39.728 Y48.861
X40.59 Y49.503
X41.624 Y50.575
X42.649 Y51.729
X42.677 Y51.758
X43.356 Y52.415
X39.679 Y55.819
X36.249 Y52.016
X36.371 Y51.782
X36.74 Y51.286
X37.75 Y50.314
X38.918 Y49.435
X39.224 Y49.218
X39.242 Y49.199
X39.251 Y49.175
Y49.149
X39.25 Y49.123
X39.259 Y49.099
X39.277 Y49.08
X39.729 Y48.759
X40.645 Y49.441
X41.685 Y50.519
X42.71 Y51.674
X42.734 Y51.699
X43.476 Y52.417
X39.674 Y55.936
X36.15 Y52.028
X36.301 Y51.738
X36.678 Y51.231
X37.697 Y50.251
X38.869 Y49.369
X39.277 Y49.08
X39.295 Y49.061
X39.304 Y49.037
Y49.011
X39.303 Y48.985
X39.312 Y48.96
X39.33 Y48.941
X39.73 Y48.658
X40.699 Y49.379
X41.745 Y50.463
X42.772 Y51.619
X42.791 Y51.64
X43.595 Y52.418
X39.669 Y56.053
X36.051 Y52.041
X36.231 Y51.694
X36.616 Y51.177
X37.643 Y50.189
X38.821 Y49.303
X39.33 Y48.941
X39.348 Y48.922
X39.357 Y48.898
Y48.872
X39.356 Y48.846
X39.365 Y48.822
X39.383 Y48.803
X39.731 Y48.556
X40.754 Y49.317
X41.806 Y50.407
X42.833 Y51.565
X42.849 Y51.581
X43.715 Y52.419
X39.663 Y56.17
X35.951 Y52.054
X36.161 Y51.65
X36.554 Y51.122
X37.59 Y50.126
X38.772 Y49.236
X39.383 Y48.803
X39.401 Y48.784
X39.41 Y48.76
Y48.734
X39.409 Y48.708
X39.418 Y48.683
X39.436 Y48.664
X39.733 Y48.454
X40.808 Y49.255
X41.866 Y50.351
X42.895 Y51.51
X42.906 Y51.522
X43.835 Y52.421
X39.658 Y56.287
X35.852 Y52.067
X36.091 Y51.606
X36.492 Y51.067
X37.537 Y50.063
X38.724 Y49.17
X39.436 Y48.664
X39.454 Y48.646
X39.464 Y48.621
X39.463 Y48.595
X39.462 Y48.569
X39.471 Y48.545
X39.489 Y48.526
X39.734 Y48.353
X40.863 Y49.193
X41.926 Y50.295
X42.956 Y51.455
X42.963 Y51.463
X43.954 Y52.422
X39.653 Y56.404
X35.753 Y52.079
X36.021 Y51.563
X36.43 Y51.013
X37.483 Y50
X38.675 Y49.103
X39.489 Y48.526
X39.507 Y48.507
X39.517 Y48.483
X39.516 Y48.457
X39.515 Y48.431
X39.525 Y48.406
X39.542 Y48.387
X39.735 Y48.251
X40.917 Y49.131
X41.987 Y50.239
X43.018 Y51.401
X44.074 Y52.423
X39.648 Y56.521
X35.653 Y52.092
X35.951 Y51.519
X36.368 Y50.958
X37.43 Y49.938
X38.627 Y49.037
X39.542 Y48.387
X39.596 Y48.359 Z-2.488
X39.654 Y48.341 Z-2.476
X39.705 Y48.335 Z-2.441
X39.756 Y48.338 Z-2.407
X39.823 Y48.354 Z-2.304
X39.845 Y48.364 Z-2.183
Z5
X37.541 Y62.815
Z2.817 F200
X37.559 Y62.829 Z2.698 F333.3
X37.609 Y62.872 Z2.597
X37.68 Y62.941 Z2.527
X37.759 Y63.029 Z2.5
G3 X35.437 Y64.954 Z2.335 I-1.161 J0.962
X37.759 Y63.029 Z2.169 I1.161 J-0.962
X35.437 Y64.954 Z2.004 I-1.161 J0.962
X37.759 Y63.029 Z1.838 I1.161 J-0.962
X35.437 Y64.954 Z1.673 I-1.161 J0.962
X37.759 Y63.029 Z1.507 I1.161 J-0.962
X35.437 Y64.954 Z1.342 I-1.161 J0.962
X37.759 Y63.029 Z1.176 I1.161 J-0.962
X35.437 Y64.954 Z1.011 I-1.161 J0.962
X37.759 Y63.029 Z0.845 I1.161 J-0.962
X35.437 Y64.954 Z0.68 I-1.161 J0.962
X37.759 Y63.029 Z0.515 I1.161 J-0.962
X35.437 Y64.954 Z0.349 I-1.161 J0.962
X37.759 Y63.029 Z0.184 I1.161 J-0.962
X35.437 Y64.954 Z0.018 I-1.161 J0.962
X37.759 Y63.029 Z-0.147 I1.161 J-0.962
X35.437 Y64.954 Z-0.313 I-1.161 J0.962
X37.759 Y63.029 Z-0.478 I1.161 J-0.962
X35.437 Y64.954 Z-0.644 I-1.161 J0.962
X37.759 Y63.029 Z-0.809 I1.161 J-0.962
X35.437 Y64.954 Z-0.974 I-1.161 J0.962
X37.759 Y63.029 Z-1.14 I1.161 J-0.962
X35.437 Y64.954 Z-1.305 I-1.161 J0.962
X37.759 Y63.029 Z-1.471 I1.161 J-0.962
X35.437 Y64.954 Z-1.636 I-1.161 J0.962
X37.759 Y63.029 Z-1.802 I1.161 J-0.962
X35.437 Y64.954 Z-1.967 I-1.161 J0.962
X37.759 Y63.029 Z-2.133 I1.161 J-0.962
X35.437 Y64.954 Z-2.298 I-1.161 J0.962
X37.759 Y63.029 Z-2.464 I1.161 J-0.962
X38.106 Y63.992 Z-2.5 I-1.161 J0.962
X35.269 Y63.992 I-1.418 J0
X35.413 Y63.992 I0.072 J0 F300
X35.269 Y63.992 I-0.072 J0
G1 X35.277 Y63.95
X35.298 Y63.914
X35.33 Y63.887
X35.369 Y63.873
X35.411
X35.45 Y63.887
X35.482 Y63.914
X35.503 Y63.95
X35.511 Y63.992
G3 X35.172 Y63.992 I-0.169 J0
X35.608 Y63.992 I0.218 J0
X35.074 Y63.992 I-0.267 J0
X35.706 Y63.992 I0.316 J0
X34.977 Y63.992 I-0.364 J0
X35.803 Y63.992 I0.413 J0
X34.879 Y63.992 I-0.462 J0
X35.901 Y63.992 I0.511 J0
X34.782 Y63.992 I-0.559 J0
X35.998 Y63.992 I0.608 J0
X34.684 Y63.992 I-0.657 J0
X36.096 Y63.992 I0.706 J0
X34.587 Y63.992 I-0.754 J0
X36.193 Y63.992 I0.803 J0
X34.489 Y63.992 I-0.852 J0
X36.291 Y63.992 I0.901 J0
X34.392 Y63.992 I-0.949 J0
X36.388 Y63.992 I0.998 J0
X34.294 Y63.992 I-1.047 J0
X36.486 Y63.992 I1.096 J0
X34.197 Y63.992 I-1.144 J0
X36.583 Y63.992 I1.193 J0
X34.099 Y63.992 I-1.242 J0
X36.681 Y63.992 I1.291 J0
X34.002 Y63.992 I-1.339 J0
X36.778 Y63.992 I1.388 J0
X33.904 Y63.992 I-1.437 J0
X36.875 Y63.992 I1.486 J0
X33.807 Y63.992 I-1.534 J0
X36.973 Y63.992 I1.583 J0
X33.709 Y63.992 I-1.632 J0
X37.07 Y63.992 I1.681 J0
X33.612 Y63.992 I-1.729 J0
X37.168 Y63.992 I1.778 J0
X33.514 Y63.992 I-1.827 J0
X37.265 Y63.992 I1.876 J0
X33.417 Y63.992 I-1.924 J0
X37.363 Y63.992 I1.973 J0
X33.319 Y63.992 I-2.022 J0
X37.46 Y63.992 I2.071 J0
X33.222 Y63.992 I-2.119 J0
X37.558 Y63.992 I2.168 J0
X33.124 Y63.992 I-2.217 J0
X37.655 Y63.992 I2.266 J0
X33.027 Y63.992 I-2.314 J0
X37.753 Y63.992 I2.363 J0
X32.929 Y63.992 I-2.412 J0
X37.85 Y63.992 I2.461 J0
X32.832 Y63.992 I-2.509 J0
X37.948 Y63.992 I2.558 J0
X32.734 Y63.992 I-2.607 J0
X38.046 Y63.992 I2.656 J0
X32.637 Y63.992 I-2.704 J0
X38.143 Y63.992 I2.753 J0
X32.539 Y63.992 I-2.802 J0
X38.143 Y63.992 I2.802 J0
G1 X38.136 Y64.052 Z-2.488
X38.116 Y64.109 Z-2.476
X38.092 Y64.154 Z-2.441
X38.06 Y64.195 Z-2.407
X38.008 Y64.24 Z-2.304
X37.987 Y64.252 Z-2.183
Z5
X22.937 Y42.702
Z2.817 F200
X22.917 Y42.714 Z2.698 F333.3
X22.859 Y42.746 Z2.597
X22.769 Y42.788 Z2.527
X22.659 Y42.831 Z2.5
G3 X21.672 Y39.981 Z2.335 I-0.494 J-1.425
X22.659 Y42.831 Z2.169 I0.494 J1.425
X21.672 Y39.981 Z2.004 I-0.494 J-1.425
X22.659 Y42.831 Z1.838 I0.494 J1.425
X21.672 Y39.981 Z1.673 I-0.494 J-1.425
X22.659 Y42.831 Z1.507 I0.494 J1.425
X21.672 Y39.981 Z1.342 I-0.494 J-1.425
X22.659 Y42.831 Z1.176 I0.494 J1.425
X21.672 Y39.981 Z1.011 I-0.494 J-1.425
X22.659 Y42.831 Z0.845 I0.494 J1.425
X21.672 Y39.981 Z0.68 I-0.494 J-1.425
X22.659 Y42.831 Z0.515 I0.494 J1.425
X21.672 Y39.981 Z0.349 I-0.494 J-1.425
X22.659 Y42.831 Z0.184 I0.494 J1.425
X21.672 Y39.981 Z0.018 I-0.494 J-1.425
X22.659 Y42.831 Z-0.147 I0.494 J1.425
X21.672 Y39.981 Z-0.313 I-0.494 J-1.425
X22.659 Y42.831 Z-0.478 I0.494 J1.425
X21.672 Y39.981 Z-0.644 I-0.494 J-1.425
X22.659 Y42.831 Z-0.809 I0.494 J1.425
X21.672 Y39.981 Z-0.974 I-0.494 J-1.425
X22.659 Y42.831 Z-1.14 I0.494 J1.425
X21.672 Y39.981 Z-1.305 I-0.494 J-1.425
X22.659 Y42.831 Z-1.471 I0.494 J1.425
X21.672 Y39.981 Z-1.636 I-0.494 J-1.425
X22.659 Y42.831 Z-1.802 I0.494 J1.425
X21.672 Y39.981 Z-1.967 I-0.494 J-1.425
X22.659 Y42.831 Z-2.133 I0.494 J1.425
X21.672 Y39.981 Z-2.298 I-0.494 J-1.425
X22.659 Y42.831 Z-2.464 I0.494 J1.425
X21.636 Y42.819 Z-2.5 I-0.494 J-1.425
G1 X21.634 Y42.818 F300
X20.517 Y42.262
X20.543 Y42.217
X22.074 Y42.894
X22.188 Y42.941
X22.304 Y42.985
X23.991 Y43.586
X24.118 Y43.628
X22.973 Y43.32
X21.636 Y42.819
X21.635
X21.634
X21.633
X20.515 Y42.263
X20.543 Y42.216
X22.075 Y42.893
X22.189 Y42.94
X22.304 Y42.984
X23.992 Y43.585
X24.105 Y43.623
X24.219 Y43.657
X22.973 Y43.321
X21.634 Y42.819
X21.608 Y42.817
X21.585 Y42.829
X21.561 Y42.84
X21.535 Y42.835
X20.432 Y42.287
X20.519 Y42.141
X22.099 Y42.839
X22.21 Y42.886
X22.324 Y42.929
X24.011 Y43.53
G2 X24.351 Y43.63 I1.1 J-3.089
G1 X25.802 Y43.976
X25.912 Y44.001
X25.741 Y43.99
X24.359 Y43.755
X22.955 Y43.377
X21.61 Y42.873
X21.535 Y42.835
X21.511 Y42.831
X21.488 Y42.841
X21.466 Y42.851
X21.442 Y42.847
X20.377 Y42.317
X20.36 Y42.306
X20.498 Y42.075
X22.12 Y42.791
X22.23 Y42.838
X22.341 Y42.88
X24.029 Y43.481
G2 X24.363 Y43.58 I1.083 J-3.04
G1 X25.814 Y43.926
G2 X26.316 Y44.005 I0.749 J-3.139
G1 X27.489 Y44.094
X27.012 Y44.123
X25.735 Y44.041
X24.348 Y43.806
X22.939 Y43.426
X21.589 Y42.92
X21.442 Y42.847
X21.418 Y42.843
X21.395 Y42.853
X21.373 Y42.863
X21.349 Y42.859
X20.351 Y42.363
X20.29 Y42.322
X20.477 Y42.009
X22.141 Y42.744
X22.249 Y42.789
X22.359 Y42.831
X24.046 Y43.432
G2 X24.375 Y43.529 I1.065 J-2.991
G1 X25.826 Y43.875
G2 X26.32 Y43.953 I0.737 J-3.088
G1 X27.557 Y44.047
G2 X28.261 Y44.023 I0.243 J-3.165
G1 X28.868 Y43.934
X28.856 Y43.939
X28.088 Y44.111
X27.012 Y44.175
X25.729 Y44.093
X24.337 Y43.857
X22.923 Y43.476
X21.568 Y42.968
X21.349 Y42.859
X21.323 Y42.855
X21.299 Y42.865
X21.275 Y42.876
X21.249 Y42.872
X20.323 Y42.411
X20.215 Y42.34
X20.454 Y41.938
X22.163 Y42.693
X22.27 Y42.737
X22.377 Y42.778
X24.065 Y43.379
G2 X24.388 Y43.475 I1.046 J-2.938
G1 X25.839 Y43.821
G2 X26.324 Y43.897 I0.724 J-3.034
G1 X27.561 Y43.992
G2 X28.253 Y43.968 I0.238 J-3.11
G1 X29.241 Y43.823
X28.874 Y43.993
X28.096 Y44.166
X27.012 Y44.231
X25.723 Y44.148
X24.325 Y43.912
X22.906 Y43.529
X21.546 Y43.019
X21.249 Y42.872
X21.223 Y42.867
X21.199 Y42.878
X21.175 Y42.889
X21.149 Y42.884
X20.295 Y42.459
X20.139 Y42.357
X20.432 Y41.867
X22.186 Y42.642
X22.29 Y42.686
X22.396 Y42.726
X24.084 Y43.327
G2 X24.401 Y43.421 I1.028 J-2.886
G1 X25.852 Y43.767
G2 X26.329 Y43.841 I0.711 J-2.98
G1 X27.566 Y43.936
G2 X28.245 Y43.913 I0.234 J-3.054
G1 X29.288 Y43.76
X29.407 Y43.74
X29.525 Y43.715
X29.393 Y43.814
X28.892 Y44.046
X28.104 Y44.221
X27.012 Y44.287
X25.716 Y44.204
X24.313 Y43.966
X22.889 Y43.582
X21.524 Y43.07
X21.149 Y42.884
X21.132 Y42.879
X21.113 Y42.882
X21.097 Y42.891
X21.081 Y42.9
X21.062 Y42.902
X21.045 Y42.898
X20.266 Y42.51
X20.06 Y42.375
X20.408 Y41.792
X22.209 Y42.588
X22.312 Y42.631
X22.416 Y42.67
X24.103 Y43.271
G2 X24.414 Y43.364 I1.008 J-2.83
G1 X25.866 Y43.71
G2 X26.333 Y43.783 I0.697 J-2.922
G1 X27.57 Y43.878
G2 X28.236 Y43.855 I0.23 J-2.996
G1 X29.279 Y43.701
G2 X29.815 Y43.572 I-0.437 J-2.973
G1 X29.423 Y43.865
X28.911 Y44.102
X28.112 Y44.28
X27.012 Y44.346
X25.709 Y44.262
X24.301 Y44.023
X22.871 Y43.638
X21.5 Y43.124
X21.045 Y42.898
X21.019 Y42.893
X20.994 Y42.904
X20.97 Y42.915
X20.944 Y42.91
X20.238 Y42.559
X19.985 Y42.392
X20.385 Y41.721
X22.232 Y42.537
X22.333 Y42.579
X22.435 Y42.618
X24.122 Y43.219
G2 X24.427 Y43.309 I0.989 J-2.778
G1 X25.879 Y43.655
G2 X26.337 Y43.727 I0.684 J-2.868
G1 X27.574 Y43.822
G2 X28.228 Y43.799 I0.225 J-2.94
G1 X29.271 Y43.646
G2 X30.067 Y43.411 I-0.428 J-2.917
G1 X30.091 Y43.4
X29.983 Y43.516
X29.452 Y43.913
X28.929 Y44.155
X28.12 Y44.335
X27.012 Y44.402
X25.703 Y44.318
X24.289 Y44.078
X22.854 Y43.691
X21.478 Y43.176
X20.944 Y42.91
X20.927 Y42.906
X20.908 Y42.908
X20.892 Y42.917
X20.876 Y42.926
X20.858 Y42.928
X20.84 Y42.924
X20.209 Y42.61
X19.906 Y42.41
X20.362 Y41.647
X22.256 Y42.484
X22.454 Y42.563
X24.142 Y43.164
G2 X24.441 Y43.252 I0.97 J-2.723
G1 X25.892 Y43.599
G2 X26.342 Y43.669 I0.671 J-2.811
G1 X27.579 Y43.764
G2 X28.219 Y43.742 I0.221 J-2.882
G1 X29.263 Y43.588
G2 X30.043 Y43.358 I-0.42 J-2.859
G1 X30.333 Y43.226
X30.022 Y43.56
X29.482 Y43.963
X28.948 Y44.21
X28.128 Y44.393
X27.011 Y44.46
X25.696 Y44.376
X24.276 Y44.135
X22.836 Y43.747
X21.455 Y43.229
X20.84 Y42.924
X20.822 Y42.919
X20.804 Y42.921
X20.788 Y42.93
X20.772 Y42.939
X20.754 Y42.942
X20.736 Y42.937
X20.18 Y42.66
X19.828 Y42.428
X20.338 Y41.573
X22.279 Y42.43
X22.474 Y42.508
X24.161 Y43.109
G2 X24.454 Y43.196 I0.95 J-2.668
G1 X25.906 Y43.542
G2 X26.346 Y43.611 I0.657 J-2.755
G1 X27.583 Y43.706
G2 X28.211 Y43.684 I0.216 J-2.824
G1 X29.254 Y43.531
G2 X30.019 Y43.305 I-0.411 J-2.802
G1 X30.575 Y43.051
X30.061 Y43.603
X29.512 Y44.014
X28.967 Y44.266
X28.136 Y44.451
X27.011 Y44.519
X25.689 Y44.434
X24.264 Y44.192
X22.818 Y43.802
X21.432 Y43.283
X20.736 Y42.937
X20.718 Y42.932
X20.699 Y42.934
X20.683 Y42.944
X20.667 Y42.953
X20.648 Y42.955
X20.63 Y42.95
X20.15 Y42.712
X19.748 Y42.447
X20.314 Y41.497
X20.358 Y41.517
X22.303 Y42.376
X22.494 Y42.452
X24.181 Y43.053
G2 X24.468 Y43.138 I0.93 J-2.612
G1 X25.92 Y43.484
G2 X26.351 Y43.552 I0.643 J-2.697
G1 X27.588 Y43.647
G2 X28.202 Y43.625 I0.212 J-2.765
G1 X29.246 Y43.472
G2 X29.994 Y43.251 I-0.403 J-2.743
G1 X30.75 Y42.907
X30.646 Y43.062
X30.101 Y43.647
X29.542 Y44.065
X28.986 Y44.322
X28.144 Y44.51
X27.011 Y44.578
X25.683 Y44.493
X24.251 Y44.25
X22.8 Y43.859
X21.408 Y43.337
X20.63 Y42.95
X20.611 Y42.945
X20.592 Y42.948
X20.575 Y42.957
X20.557 Y42.967
X20.538 Y42.97
X20.519 Y42.964
X20.119 Y42.766
X19.664 Y42.466
X20.29 Y41.417
X20.383 Y41.46
X22.328 Y42.319
X22.514 Y42.394
X24.202 Y42.995
G2 X24.482 Y43.078 I0.909 J-2.553
G1 X25.934 Y43.424
G2 X26.356 Y43.49 I0.629 J-2.637
G1 X27.592 Y43.585
G2 X28.193 Y43.564 I0.207 J-2.703
G1 X29.237 Y43.411
G2 X29.968 Y43.195 I-0.394 J-2.682
G1 X30.839 Y42.797
X30.924 Y42.757
X30.695 Y43.1
X30.143 Y43.694
X29.574 Y44.118
X29.006 Y44.382
X28.153 Y44.572
X27.011 Y44.64
X25.675 Y44.555
X24.238 Y44.311
X22.781 Y43.918
X21.383 Y43.394
X20.519 Y42.964
X20.5 Y42.959
X20.481 Y42.962
X20.464 Y42.971
X20.448 Y42.981
X20.428 Y42.983
X20.41 Y42.978
X20.089 Y42.819
X19.582 Y42.485
X20.267 Y41.337
X20.286 Y41.346
X20.408 Y41.404
X22.353 Y42.264
X22.535 Y42.336
X24.222 Y42.937
G2 X24.497 Y43.018 I0.889 J-2.496
G1 X25.948 Y43.365
G2 X26.36 Y43.429 I0.615 J-2.577
G1 X27.597 Y43.524
G2 X28.185 Y43.503 I0.202 J-2.642
G1 X29.228 Y43.35
G2 X29.943 Y43.139 I-0.385 J-2.621
G1 X30.814 Y42.742
G2 X31.115 Y42.58 I-1.1 J-2.41
G1 X30.743 Y43.138
X30.184 Y43.739
X29.605 Y44.171
X29.026 Y44.44
X28.162 Y44.632
X27.011 Y44.701
X25.668 Y44.615
X24.225 Y44.371
X22.762 Y43.976
X21.359 Y43.45
X20.41 Y42.978
X20.392 Y42.973
X20.373 Y42.976
X20.357 Y42.985
X20.341 Y42.994
X20.323 Y42.997
X20.305 Y42.992
X20.06 Y42.87
X19.502 Y42.503
X20.244 Y41.259
X20.312 Y41.294
X20.432 Y41.35
X22.377 Y42.21
X22.555 Y42.281
X24.242 Y42.882
G2 X24.51 Y42.961 I0.869 J-2.441
G1 X25.962 Y43.307
G2 X26.365 Y43.37 I0.601 J-2.52
G1 X27.602 Y43.465
G2 X28.176 Y43.445 I0.198 J-2.583
G1 X29.219 Y43.292
G2 X29.918 Y43.086 I-0.376 J-2.563
G1 X30.789 Y42.688
G2 X31.314 Y42.369 I-1.075 J-2.357
G1 X31.285 Y42.431
X30.789 Y43.175
X30.223 Y43.783
X29.636 Y44.222
X29.045 Y44.496
X28.17 Y44.691
X27.011 Y44.76
X25.661 Y44.674
X24.212 Y44.428
X22.744 Y44.032
X21.335 Y43.504
X20.305 Y42.992
X20.286 Y42.987
X20.267 Y42.989
X20.251 Y42.998
X20.235 Y43.008
X20.216 Y43.01
X20.197 Y43.005
X20.03 Y42.922
X19.421 Y42.522
X20.221 Y41.181
X20.339 Y41.24
X20.456 Y41.296
X22.401 Y42.155
X22.575 Y42.224
X24.262 Y42.825
G2 X24.524 Y42.903 I0.849 J-2.384
G1 X25.976 Y43.249
G2 X26.369 Y43.311 I0.587 J-2.462
G1 X27.606 Y43.405
G2 X28.167 Y43.386 I0.193 J-2.523
G1 X29.211 Y43.233
G2 X29.894 Y43.031 I-0.368 J-2.504
G1 X30.765 Y42.634
G2 X31.393 Y42.225 I-1.051 J-2.302
G1 X31.485 Y42.144
X31.338 Y42.461
X30.837 Y43.212
X30.263 Y43.828
X29.667 Y44.274
X29.064 Y44.553
X28.178 Y44.75
X27.011 Y44.82
X25.655 Y44.733
X24.199 Y44.487
X22.726 Y44.089
X21.311 Y43.559
X20.197 Y43.005
X20.18 Y43
X20.161 Y43.003
X20.145 Y43.012
X20.129 Y43.021
X20.11 Y43.024
X20.092 Y43.019
X20 Y42.973
X19.342 Y42.54
X20.199 Y41.104
X20.366 Y41.188
X20.48 Y41.242
X22.425 Y42.101
X22.594 Y42.169
X24.282 Y42.77
G2 X24.538 Y42.846 I0.829 J-2.329
G1 X25.989 Y43.192
G2 X26.374 Y43.252 I0.574 J-2.405
G1 X27.611 Y43.347
G2 X28.159 Y43.328 I0.189 J-2.465
G1 X29.202 Y43.175
G2 X29.869 Y42.978 I-0.359 J-2.446
G1 X30.74 Y42.58
G2 X31.354 Y42.181 I-1.026 J-2.249
G1 X31.656 Y41.913
X31.389 Y42.49
X30.883 Y43.249
X30.303 Y43.872
X29.697 Y44.324
X29.083 Y44.609
X28.186 Y44.809
X27.011 Y44.879
X25.648 Y44.792
X24.187 Y44.544
X22.708 Y44.145
X21.288 Y43.613
X20.092 Y43.019
X20.075 Y43.014
X20.056 Y43.016
X20.04 Y43.025
X20.024 Y43.035
X20.005 Y43.037
X19.988 Y43.032
X19.971 Y43.024
X19.263 Y42.558
X20.176 Y41.027
X20.392 Y41.136
X20.504 Y41.188
X22.448 Y42.048
X22.614 Y42.114
X24.302 Y42.715
G2 X24.551 Y42.789 I0.81 J-2.274
G1 X26.003 Y43.135
G2 X26.378 Y43.194 I0.56 J-2.348
G1 X27.615 Y43.288
G2 X28.15 Y43.27 I0.184 J-2.406
G1 X29.194 Y43.117
G2 X29.845 Y42.925 I-0.351 J-2.388
G1 X30.716 Y42.527
G2 X31.315 Y42.137 I-1.002 J-2.196
G1 X31.828 Y41.682
X31.44 Y42.518
X30.929 Y43.285
X30.342 Y43.916
X29.727 Y44.375
X29.102 Y44.665
X28.194 Y44.867
X27.011 Y44.938
X25.641 Y44.85
X24.174 Y44.601
X22.69 Y44.201
X21.264 Y43.667
X19.988 Y43.032
X19.961 Y43.027
X19.935 Y43.037
X19.919 Y43.045
X19.9
X19.883 Y43.039
X19.181 Y42.577
X20.153 Y40.947
X20.42 Y41.081
X20.528 Y41.133
X22.473 Y41.992
X22.634 Y42.056
X24.322 Y42.657
G2 X24.565 Y42.73 I0.789 J-2.216
G1 X26.017 Y43.076
G2 X26.383 Y43.133 I0.546 J-2.288
G1 X27.62 Y43.228
G2 X28.141 Y43.21 I0.18 J-2.346
G1 X29.185 Y43.057
G2 X29.82 Y42.869 I-0.342 J-2.328
G1 X30.691 Y42.472
G2 X31.275 Y42.092 I-0.977 J-2.14
G1 X31.948 Y41.494
X31.894 Y41.685
X31.493 Y42.548
X30.977 Y43.323
X30.383 Y43.961
X29.758 Y44.427
X29.121 Y44.723
X28.203 Y44.927
X27.01 Y44.999
X25.634 Y44.911
X24.161 Y44.661
X22.671 Y44.259
X21.24 Y43.723
X19.941 Y43.077
X19.883 Y43.039
X19.865 Y43.031
X19.845
X19.827 Y43.039
X19.809 Y43.047
X19.789
X19.771 Y43.039
X19.097 Y42.596
X20.129 Y40.865
X20.448 Y41.026
X20.553 Y41.076
X22.498 Y41.935
X22.655 Y41.998
X24.343 Y42.599
X24.46 Y42.637
X24.58 Y42.669
X26.031 Y43.015
G2 X26.388 Y43.071 I0.531 J-2.228
G1 X27.625 Y43.166
G2 X28.132 Y43.148 I0.175 J-2.284
G1 X29.176 Y42.995
G2 X29.794 Y42.812 I-0.333 J-2.266
G1 X30.665 Y42.415
G2 X31.233 Y42.045 I-0.951 J-2.084
G1 X31.954 Y41.407
X32.07 Y41.295
X31.952 Y41.707
X31.548 Y42.579
X31.026 Y43.362
X30.424 Y44.008
X29.79 Y44.481
X29.141 Y44.782
X28.212 Y44.989
X27.01 Y45.061
X25.627 Y44.973
X24.148 Y44.722
X22.652 Y44.319
X21.215 Y43.78
X19.91 Y43.131
X19.771 Y43.039
X19.753 Y43.032
X19.734
X19.716 Y43.04
X19.698 Y43.047
X19.679
X19.662 Y43.04
X19.015 Y42.615
X20.106 Y40.786
X20.475 Y40.972
X20.578 Y41.02
X22.523 Y41.88
X22.676 Y41.941
X24.363 Y42.542
X24.478 Y42.579
X24.594 Y42.61
X26.045 Y42.956
G2 X26.392 Y43.011 I0.517 J-2.169
G1 X27.629 Y43.105
G2 X28.124 Y43.088 I0.17 J-2.223
G1 X29.167 Y42.935
G2 X29.769 Y42.757 I-0.324 J-2.206
G1 X30.64 Y42.36
G2 X31.193 Y42 I-0.926 J-2.029
G1 X31.913 Y41.361
G2 X32.164 Y41.099 I-1.479 J-1.668
G1 X32.203 Y41.052
X32.009 Y41.728
X31.601 Y42.608
X31.073 Y43.4
X30.465 Y44.053
X29.822 Y44.534
X29.161 Y44.84
X28.22 Y45.049
X27.01 Y45.122
X25.62 Y45.033
X24.135 Y44.781
X22.634 Y44.376
X21.191 Y43.836
X19.879 Y43.183
X19.662 Y43.04
X19.644 Y43.033
X19.626
X19.609 Y43.04
X19.592 Y43.047
X19.573 Y43.048
X19.556 Y43.041
X18.936 Y42.633
X20.084 Y40.709
X20.501 Y40.919
X20.601 Y40.967
X22.546 Y41.826
X22.695 Y41.886
X24.383 Y42.487
X24.494 Y42.523
X24.608 Y42.553
X26.059 Y42.899
G2 X26.397 Y42.952 I0.504 J-2.112
G1 X27.634 Y43.047
G2 X28.115 Y43.03 I0.166 J-2.165
G1 X29.158 Y42.877
G2 X29.744 Y42.704 I-0.315 J-2.148
G1 X30.615 Y42.307
G2 X31.154 Y41.956 I-0.901 J-1.975
G1 X31.875 Y41.317
G2 X32.119 Y41.062 I-1.441 J-1.625
G1 X32.332 Y40.801
X32.329 Y40.824
X32.064 Y41.749
X31.652 Y42.637
X31.12 Y43.436
X30.504 Y44.097
X29.852 Y44.584
X29.18 Y44.895
X28.228 Y45.107
X27.01 Y45.18
X25.613 Y45.091
X24.122 Y44.838
X22.616 Y44.432
X21.168 Y43.889
X19.85 Y43.234
X19.556 Y43.041
X19.538 Y43.033
X19.518
X19.5 Y43.041
X19.481 Y43.049
X19.462
X19.443 Y43.041
X18.852 Y42.652
X20.06 Y40.627
X20.529 Y40.864
X20.627 Y40.91
X22.571 Y41.769
X22.716 Y41.827
X24.404 Y42.428
X24.512 Y42.463
X24.622 Y42.492
X26.074 Y42.839
G2 X26.402 Y42.89 I0.489 J-2.051
G1 X27.638 Y42.985
G2 X28.106 Y42.969 I0.161 J-2.103
G1 X29.149 Y42.815
G2 X29.718 Y42.647 I-0.306 J-2.086
G1 X30.589 Y42.25
G2 X31.113 Y41.909 I-0.875 J-1.918
G1 X31.833 Y41.271
G2 X32.07 Y41.023 I-1.399 J-1.578
G1 X32.418 Y40.596
X32.391 Y40.836
X32.123 Y41.771
X31.707 Y42.668
X31.169 Y43.475
X30.546 Y44.143
X29.884 Y44.638
X29.2 Y44.955
X28.237 Y45.169
X27.01 Y45.243
X25.606 Y45.153
X24.109 Y44.899
X22.597 Y44.492
X21.143 Y43.947
X19.819 Y43.288
X19.443 Y43.041
X19.425 Y43.034
X19.405
X19.387 Y43.042
X19.369 Y43.049
X19.349
X19.331 Y43.042
X18.768 Y42.672
X20.036 Y40.545
X20.558 Y40.808
X20.652 Y40.852
X22.597 Y41.712
X22.737 Y41.768
X24.425 Y42.369
X24.53 Y42.403
X24.637 Y42.432
X26.088 Y42.778
G2 X26.406 Y42.828 I0.475 J-1.991
G1 X27.643 Y42.922
G2 X28.097 Y42.907 I0.156 J-2.04
G1 X29.14 Y42.754
G2 X29.692 Y42.591 I-0.297 J-2.025
G1 X30.564 Y42.193
G2 X31.072 Y41.863 I-0.85 J-1.862
G1 X31.792 Y41.224
G2 X32.022 Y40.984 I-1.358 J-1.531
G1 X32.419 Y40.496
X32.505 Y40.382
X32.452 Y40.849
X32.182 Y41.792
X31.761 Y42.698
X31.218 Y43.514
X30.588 Y44.19
X29.916 Y44.692
X29.22 Y45.014
X28.246 Y45.232
X27.01 Y45.306
X25.598 Y45.215
X24.095 Y44.96
X22.578 Y44.551
X21.118 Y44.004
X19.788 Y43.343
X19.331 Y43.042
X19.313 Y43.035
X19.294
X19.276 Y43.042
X19.259 Y43.05
X19.239
X19.222 Y43.043
X18.686 Y42.69
X20.013 Y40.466
X20.585 Y40.754
X20.676 Y40.797
X22.621 Y41.656
X22.758 Y41.711
X24.445 Y42.312
X24.547 Y42.345
X24.651 Y42.373
X26.102 Y42.719
G2 X26.411 Y42.767 I0.461 J-1.932
G1 X27.648 Y42.862
G2 X28.088 Y42.847 I0.152 J-1.98
G1 X29.131 Y42.694
G2 X29.667 Y42.535 I-0.289 J-1.965
G1 X30.538 Y42.138
G2 X31.031 Y41.817 I-0.824 J-1.807
G1 X31.752 Y41.179
G2 X31.975 Y40.945 I-1.317 J-1.486
G1 X32.372 Y40.458
X32.427 Y40.387
X32.479 Y40.313
X32.593 Y40.143
X32.512 Y40.86
X32.239 Y41.814
X31.814 Y42.728
X31.265 Y43.551
X30.629 Y44.235
X29.947 Y44.744
X29.24 Y45.072
X28.254 Y45.292
X27.01 Y45.366
X25.591 Y45.275
X24.083 Y45.02
X22.559 Y44.609
X21.094 Y44.06
X19.758 Y43.395
X19.222 Y43.043
X19.204 Y43.035
X19.185 Y43.036
X19.167 Y43.043
X19.15 Y43.05
X19.131
X19.113 Y43.043
X18.605 Y42.709
X19.99 Y40.386
X20.612 Y40.7
X20.701 Y40.742
X22.646 Y41.601
X22.778 Y41.654
X24.465 Y42.255
X24.564 Y42.287
X24.665 Y42.314
X26.116 Y42.66
G2 X26.416 Y42.707 I0.447 J-1.873
G1 X27.652 Y42.802
G2 X28.079 Y42.787 I0.147 J-1.92
G1 X29.123 Y42.634
G2 X29.642 Y42.481 I-0.28 J-1.905
G1 X30.513 Y42.083
G2 X30.991 Y41.772 I-0.799 J-1.752
G1 X31.712 Y41.134
G2 X31.928 Y40.907 I-1.277 J-1.441
G1 X32.325 Y40.42
X32.429 Y40.279
X32.677 Y39.91
X32.678 Y39.924
X32.571 Y40.872
X32.295 Y41.835
X31.867 Y42.758
X31.313 Y43.589
X30.669 Y44.28
X29.978 Y44.796
X29.259 Y45.129
X28.263 Y45.352
X27.01 Y45.427
X25.584 Y45.335
X24.07 Y45.079
X22.541 Y44.666
X21.07 Y44.115
X19.727 Y43.448
X19.113 Y43.043
X19.094 Y43.036
X19.074
X19.055 Y43.044
X19.036 Y43.052
X19.015
X18.996 Y43.044
X18.518 Y42.729
X19.966 Y40.301
X20.641 Y40.642
X20.727 Y40.683
X22.672 Y41.542
X22.799 Y41.593
X24.487 Y42.194
X24.583 Y42.225
X24.68 Y42.251
X26.131 Y42.597
G2 X26.421 Y42.643 I0.432 J-1.81
G1 X27.657 Y42.737
G2 X28.07 Y42.723 I0.142 J-1.855
G1 X29.113 Y42.57
G2 X29.615 Y42.422 I-0.27 J-1.841
G1 X30.486 Y42.024
G2 X30.949 Y41.724 I-0.772 J-1.693
G1 X31.669 Y41.085
G2 X31.878 Y40.867 I-1.235 J-1.392
G1 X32.275 Y40.379
X32.375 Y40.243
X32.662 Y39.817
X32.727 Y39.712
X32.743 Y39.925
